!!!COM: Regis, Johannes
!!!CDT: ~1425-~1496
!!!COA: Josquin des Prez
!!!CDT:	~1450-1521/08/27
!!!OTL:  O admirabile commercium - Verbum caro factum est - Magnum nomen
!!!AGN:	Motet
!!!SCT:	NJE 26.8
!!!SCA:	New Josquin Edition 26.8
!!!voices: 5
**kern	**text	**text	**kern	**text	**text	**kern	**text	**kern	**text	**text	**kern	**text
*staff5	*staff5	*staff5	*staff4	*staff4	*staff4	*staff3	*staff3	*staff2	*staff2	*staff2	*staff1	*staff1
*Ivox	*	*	*Ivox	*	*	*Ivox	*	*Ivox	*	*	*Ivox	*
*I"Baryphonus	*	*	*I"Contratenor bassus	*	*	*I"Contratenor altus	*	*I"Tenor	*	*	*I"Superius	*
*I'By	*	*	*I'CtB	*	*	*I'CtA	*	*I'Tenor	*	*	*I'S	*
*clefF4	*	*	*clefGv2	*	*	*clefG2	*	*clefG2	*	*	*clefG2	*
*k[]	*	*	*k[]	*	*	*k[]	*	*k[]	*	*	*k[]	*
*>[A,B,C]	*>[A,B,C]	*>[A,B,C]	*>[A,B,C]	*>[A,B,C]	*>[A,B,C]	*>[A,B,C]	*>[A,B,C]	*>[A,B,C]	*>[A,B,C]	*>[A,B,C]	*>[A,B,C]	*>[A,B,C]
*>A	*>A	*>A	*>A	*>A	*>A	*>A	*>A	*>A	*>A	*>A	*>A	*>A
*M9/2	*	*	*M9/2	*	*	*M9/2	*	*M9/2	*	*	*M9/2	*
*met(O.)	*	*	*met(O.)	*	*	*met(O.)	*	*met(O.)	*	*	*met(O.)	*
=1-	=1-	=1-	=1-	=1-	=1-	=1-	=1-	=1-	=1-	=1-	=1-	=1-
0.C	O	.	0.c	O	.	[1.c	O	1.r	.	.	[1.cc	O
.	.	.	.	.	.	1.c_	.	1.r	.	.	1.cc_	.
1.F	ad-	.	[1.A	.	.	1.c]	.	1.r	.	.	1.cc]	.
=2	=2	=2	=2	=2	=2	=2	=2	=2	=2	=2	=2	=2
0.F	-mi-	.	1.A]	.	.	0.f	.	1.r	.	.	0.a	.
.	.	.	[0.c	.	.	.	.	1.r	.	.	.	.
[1.C	-ra-	.	.	.	.	1.e	.	1.r	.	.	[1.g	.
=3	=3	=3	=3	=3	=3	=3	=3	=3	=3	=3	=3	=3
1.C_	-bi-	.	1.c]	ad-	.	2r	.	1.r	.	.	1.g]	.
.	.	.	.	.	.	2r	.	.	.	.	.	.
.	.	.	.	.	.	2.e/	ad-	.	.	.	.	.
1.C_	.	.	1.e	.	.	.	.	1.r	.	.	1cc	ad-
.	.	.	.	.	.	4f/	.	.	.	.	.	.
.	.	.	.	.	.	2g/	.	.	.	.	.	.
.	.	.	.	.	.	2.a/	-mi-	.	.	.	2cc\	-mi-
1.C]	.	.	1.c	-mi-	.	.	.	1.r	.	.	2cc\	-ra-
.	.	.	.	.	.	4g/	.	.	.	.	.	.
.	.	.	.	.	.	2g/	-ra-	.	.	.	1ee	.
.	.	.	.	.	.	[2cc\	.	.	.	.	.	.
=4	=4	=4	=4	=4	=4	=4	=4	=4	=4	=4	=4	=4
!!linebreak:original
1.G	-le	.	1d	-ra-	.	4cc\]	.	1.r	.	.	2dd\	-bi-
.	.	.	.	.	.	4b\	.	.	.	.	.	.
.	.	.	.	.	.	2b\	-bi-	.	.	.	2.dd\	-le
.	.	.	2e\	-bi-	.	2g/	.	.	.	.	.	.
.	.	.	.	.	.	.	.	.	.	.	4cc\	.
1.r	.	.	2.f\	-le	.	1a	-le	1.r	.	.	2dd\	com-
.	.	.	.	.	.	.	.	.	.	.	2cc\	.
.	.	.	4e\	.	.	.	.	.	.	.	.	.
.	.	.	2d\	com-	.	2f/	com-	.	.	.	2.ff\	-mer-
1.r	.	.	2c\	.	.	2.g/	-mer-	1.r	.	.	.	.
.	.	.	.	.	.	.	.	.	.	.	4ee\	.
.	.	.	1g	-mer-	.	.	.	.	.	.	2.ee\	.
.	.	.	.	.	.	4a/	.	.	.	.	.	.
.	.	.	.	.	.	4b\	.	.	.	.	.	.
.	.	.	.	.	.	4cc\	.	.	.	.	4dd\	.
=5	=5	=5	=5	=5	=5	=5	=5	=5	=5	=5	=5	=5
1.r	.	.	2f\	.	.	2a/	.	1.r	.	.	2dd\	.
.	.	.	2g\	.	.	2g/	.	.	.	.	2.ee\	.
.	.	.	1c	.	.	2e/	.	.	.	.	.	.
.	.	.	.	.	.	.	.	.	.	.	4dd\	.
1.r	.	.	.	.	.	1g	.	1.r	.	.	1cc	.
.	.	.	1d	.	.	.	.	.	.	.	.	.
.	.	.	.	.	.	2f/	-ci-	.	.	.	2b\	-ci-
1.r	.	.	[1.c	.	.	1.g	-um!	1.r	.	.	1cc	-um!
.	.	.	.	.	.	.	.	.	.	.	2r	.
=6	=6	=6	=6	=6	=6	=6	=6	=6	=6	=6	=6	=6
1.r	.	.	1.c]	.	.	2r	.	1.r	.	.	1cc	Cre-
.	.	.	.	.	.	2r	.	.	.	.	.	.
.	.	.	.	.	.	2g/	Cre-	.	.	.	1ee	.
1.r	.	.	1.G	-ci-	.	1.g	-a-	1.r	.	.	.	.
.	.	.	.	.	.	.	.	.	.	.	2.dd\	-a-
.	.	.	.	.	.	.	.	.	.	.	4cc\	.
1.r	.	.	1.d	-um!	.	1.f	-tor	1.r	.	.	2b\	.
.	.	.	.	.	.	.	.	.	.	.	2a/	.
.	.	.	.	.	.	.	.	.	.	.	2dd\	-tor
=7	=7	=7	=7	=7	=7	=7	=7	=7	=7	=7	=7	=7
1.r	.	.	1.G	.	.	1g	ge-	1.r	.	.	2b\	ge-
.	.	.	.	.	.	.	.	.	.	.	2.dd\	.
.	.	.	.	.	.	2g/	-ne-	.	.	.	.	.
.	.	.	.	.	.	.	.	.	.	.	4ee\	-ne-
1.r	.	.	2r	.	.	2a/	-ris	1.r	.	.	2ff\	-ris
.	.	.	2G/	Cre-	.	2b\	.	.	.	.	2gg\	.
.	.	.	2A/	-a-	.	2cc\	hu-	.	.	.	2ee\	hu-
1.r	.	.	2B\	-tor	.	2b\	-ma-	1.r	.	.	2dd\	-ma-
.	.	.	1c	ge-	.	2g/	.	.	.	.	2.gg\	.
.	.	.	.	.	.	[2cc\	.	.	.	.	.	.
.	.	.	.	.	.	.	.	.	.	.	4ff\	.
=8	=8	=8	=8	=8	=8	=8	=8	=8	=8	=8	=8	=8
!!pagebreak:original
1.r	.	.	1c	-ne-	.	4cc\]	.	1.r	.	.	4ee\	.
.	.	.	.	.	.	4b\	.	.	.	.	4dd\	.
.	.	.	.	.	.	4a/	.	.	.	.	2ee\	.
.	.	.	.	.	.	4g/	.	.	.	.	.	.
.	.	.	2c\	-ris	.	2a/	.	.	.	.	2cc\	.
1.r	.	.	2G/	hu-	.	2g/	.	1.r	.	.	2b\	.
.	.	.	1B	-ma-	.	2f/	.	.	.	.	2.dd\	.
.	.	.	.	.	.	2g/	.	.	.	.	.	.
.	.	.	.	.	.	.	.	.	.	.	4cc\	.
1.r	.	.	2c\	.	.	2e/	.	1.r	.	.	1cc	.
.	.	.	1G	-ni	.	1d	-ni	.	.	.	.	.
.	.	.	.	.	.	.	.	.	.	.	2b\	.
=9	=9	=9	=9	=9	=9	=9	=9	=9	=9	=9	=9	=9
1.C	com-	.	2r	.	.	[1.c	ver-	1.r	.	.	1.cc	-ni,
.	.	.	2r	.	.	.	.	.	.	.	.	.
.	.	.	2G/	a-	.	.	.	.	.	.	.	.
0.F	.	.	1A	-ni-	.	1.c_	.	1.r	.	.	1.r	.
.	.	.	2A/	-ma-	.	.	.	.	.	.	.	.
.	.	.	2F/	-tum	.	1.c]	.	1.r	.	.	1.cc	a-
.	.	.	2.A/	cor-	.	.	.	.	.	.	.	.
.	.	.	4B\	.	.	.	.	.	.	.	.	.
=10	=10	=10	=10	=10	=10	=10	=10	=10	=10	=10	=10	=10
[1.C	.	.	0.c	-pus	.	[1.e	-bum	[1.g	Ver-	.	1cc	-ni-
.	.	.	.	.	.	.	.	.	.	.	1ee	-ma-
1.C_	.	.	.	.	.	1.e_	.	1.g_	.	.	.	.
.	.	.	.	.	.	.	.	.	.	.	2ee\	-tum
.	.	.	.	.	.	.	.	.	.	.	2ee\	cor-
1.C]	.	.	1.c	su-	.	1.e]	.	1.g]	.	.	2ee\	-pus
.	.	.	.	.	.	.	.	.	.	.	2.ee\	su-
.	.	.	.	.	.	.	.	.	.	.	4dd\	.
=11	=11	=11	=11	=11	=11	=11	=11	=11	=11	=11	=11	=11
[1.G	-mer-	.	1.d	-mens	.	[1.g	ca-	[1.b	-bum	.	1dd	-mens,
.	.	.	.	.	.	.	.	.	.	.	2r	.
1.G_	.	.	1B	.	.	1.g_	.	1.b_	.	.	2.gg\	de
.	.	.	.	.	.	.	.	.	.	.	4ff\	.
.	.	.	2c\	.	.	.	.	.	.	.	2ee\	.
1.G]	.	.	1.d	de	.	1.g]	.	1.b]	.	.	2.dd\	Vir-
.	.	.	.	.	.	.	.	.	.	.	2.b\	-gi-
=12	=12	=12	=12	=12	=12	=12	=12	=12	=12	=12	=12	=12
!!linebreak:original
[1.D	-ci-	.	0.d	Vir-	.	[1.f	-ro	[1.dd	ca-	.	1a	-ne
.	.	.	.	.	.	.	.	.	.	.	2a/	na-
1.D_	.	.	.	.	.	1.f_	.	1.dd_	.	.	2a/	-sci
.	.	.	.	.	.	.	.	.	.	.	1a	di-
1.D]	.	.	1.d	-gi-	.	1.f]	.	1.dd]	.	.	2a/	-gna-
.	.	.	.	.	.	.	.	.	.	.	1a	-tus
=13	=13	=13	=13	=13	=13	=13	=13	=13	=13	=13	=13	=13
[1.A	.	.	1.e	-ne	.	1.e	fa-	[1.cc	-ro	.	1.a	est.
1.A_	.	.	1.c	.	.	0.f	-ctum	1.cc_	.	.	1.r	.
1.A]	.	.	2r	.	.	.	.	1.cc]	.	.	1.a	na-
.	.	.	2r	.	.	.	.	.	.	.	.	.
.	.	.	2c\	na-	.	.	.	.	.	.	.	.
=14	=14	=14	=14	=14	=14	=14	=14	=14	=14	=14	=14	=14
0.G	-um!	.	0.d	-sci	.	[1.g	est,	0.b	fa-	.	[1.dd	-sci
.	.	.	.	.	.	1.g_	.	.	.	.	1dd]	.
.	.	.	.	.	.	.	.	.	.	.	2b\	di-
[1.C	.	.	1.e	di-	.	1.g]	.	[1.ee	.	.	2cc\	-gna-
.	.	.	.	.	.	.	.	.	.	.	1g	-tus
=15	=15	=15	=15	=15	=15	=15	=15	=15	=15	=15	=15	=15
1.C_	.	.	1.c	-gna-	.	0.g	ver-	1.ee_	.	.	2.cc\	est,
.	.	.	.	.	.	.	.	.	.	.	4dd\	.
.	.	.	.	.	.	.	.	.	.	.	2.ee\	et
1.C_	.	.	0.c	-tus	.	.	.	1.ee_	.	.	.	.
.	.	.	.	.	.	.	.	.	.	.	4ff\	.
.	.	.	.	.	.	.	.	.	.	.	1gg	pro-
1.C]	.	.	.	.	.	1.g	-bum	1.ee]	.	.	2gg\	-ce-
.	.	.	.	.	.	.	.	.	.	.	2ff\	.
.	.	.	.	.	.	.	.	.	.	.	2ee\	.
=16	=16	=16	=16	=16	=16	=16	=16	=16	=16	=16	=16	=16
!!linebreak:original
1.G	Ge-	.	1.d	est	.	1g	ca-	1.dd	-ctum	.	4dd\	.
.	.	.	.	.	.	.	.	.	.	.	4cc\	.
.	.	.	.	.	.	.	.	.	.	.	2b\	.
.	.	.	.	.	.	2g/	-ro	.	.	.	2.b\	.
0.A	-ne-	.	1.r	.	.	2e/	fa-	0.cc	.	.	.	.
.	.	.	.	.	.	.	.	.	.	.	4a/	.
.	.	.	.	.	.	2.a/	.	.	.	.	1.a	-dens
.	.	.	.	.	.	4g/	.	.	.	.	.	.
.	.	.	1.r	.	.	2f/	.	.	.	.	.	.
.	.	.	.	.	.	1e	-ctum	.	.	.	2r	.
.	.	.	.	.	.	.	.	.	.	.	2ee\	ho-
=17	=17	=17	=17	=17	=17	=17	=17	=17	=17	=17	=17	=17
1.D	-ris	.	1.a	et	.	0.d	est	[1.dd	est	.	1.ff	.
1D	hu-	.	1f	.	.	.	.	1.dd_	.	.	1dd	.
1G	.	.	1d	pro-	.	.	.	.	.	.	2b\	.
.	.	.	.	.	.	1.r	.	1.dd]	.	.	2cc\	.
1F	-ma-	.	1d	-ce-	.	.	.	.	.	.	2.ff\	.
.	.	.	.	.	.	.	.	.	.	.	4ee\	.
=18	=18	=18	=18	=18	=18	=18	=18	=18	=18	=18	=18	=18
0.C	-ni	.	1c	-dens	.	1.g	et	1.r	.	.	[1.ee	-mo
.	.	.	2c\	ho-	.	.	.	.	.	.	.	.
.	.	.	2G/	.	.	1g	ha-	1.r	.	.	1ee]	.
.	.	.	2.c\	.	.	.	.	.	.	.	.	.
.	.	.	.	.	.	2a/	-bi-	.	.	.	2r	.
.	.	.	4B\	.	.	.	.	.	.	.	.	.
1.r	.	.	2A/	.	.	2cc\	-ta-	1.r	.	.	1.ee	si-
.	.	.	2G/	.	.	2b\	.	.	.	.	.	.
.	.	.	2A/	.	.	2a/	.	.	.	.	.	.
=19	=19	=19	=19	=19	=19	=19	=19	=19	=19	=19	=19	=19
1C	a-	.	1.c	-mo	.	2g/	-vit	1.r	.	.	2.ee\	-ne
.	.	.	.	.	.	1a	in	.	.	.	.	.
.	.	.	.	.	.	.	.	.	.	.	4dd\	.
2F\	-ni-	.	.	.	.	.	.	.	.	.	2cc\	.
2G\	-ma-	.	2r	.	.	2g/	.	1.r	.	.	2b\	se-
1D	-tum	.	1d	si-	.	1f	no-	.	.	.	2a/	.
.	.	.	.	.	.	.	.	.	.	.	1dd	.
1.A	cor-	.	1e	.	.	1.e	.	1.r	.	.	.	.
.	.	.	.	.	.	.	.	.	.	.	1cc	.
.	.	.	2c\	-ne	.	.	.	.	.	.	.	.
=20	=20	=20	=20	=20	=20	=20	=20	=20	=20	=20	=20	=20
!!pagebreak:original
0.G	-pus	.	2d\	se-	.	1.g	.	1.dd	et	.	[1.b	-mi-
.	.	.	2B\	.	.	.	.	.	.	.	.	.
.	.	.	2d\	.	.	.	.	.	.	.	.	.
.	.	.	2d\	.	.	1d	-bis,	1dd	ha-	.	1b]	.
.	.	.	2.g\	.	.	.	.	.	.	.	.	.
.	.	.	.	.	.	2.g/	in	2ee\	-bi-	.	2b\	-ne,
.	.	.	4f\	.	.	.	.	.	.	.	.	.
1.r	.	.	2e\	.	.	.	.	2.gg\	-ta-	.	2cc\	si-
.	.	.	.	.	.	4a/	.	.	.	.	.	.
.	.	.	2d\	-mi-	.	2b\	.	.	.	.	2dd\	.
.	.	.	.	.	.	.	.	4ff\	.	.	.	.
.	.	.	[2c\	-ne,	.	2cc\	.	2ee\	.	.	2a/	-ne
=21	=21	=21	=21	=21	=21	=21	=21	=21	=21	=21	=21	=21
2%9r	.	.	4c\]	.	.	2g/	no-	2dd\	-vit	.	2dd\	se-
.	.	.	4B\	si-	.	.	.	.	.	.	.	.
.	.	.	2c\	.	.	2e/	.	2.ee\	in	.	2cc\	.
.	.	.	2d\	-ne	.	2f/	.	.	.	.	2a/	.
.	.	.	.	.	.	.	.	4dd\	.	.	.	.
.	.	.	2B\	se-	.	2g/	.	2dd\	no-	.	2b\	.
.	.	.	2c\	.	.	2.e/	.	2.cc\	.	.	2.a/	.
.	.	.	2G/	.	.	.	.	.	.	.	.	.
.	.	.	.	.	.	4d/	.	4b\	.	.	4g/	.
.	.	.	2B\	.	.	1d	.	2g/	.	.	1g	.
.	.	.	1A	.	.	.	.	2.a/	.	.	.	.
.	.	.	.	.	.	2c/	.	.	.	.	2f#i/	-mi-
.	.	.	.	.	.	.	.	4g/	.	.	.	.
=22	=22	=22	=22	=22	=22	=22	=22	=22	=22	=22	=22	=22
[1.G	su-	.	1.G	.	.	1.d	.	1.b	-bis.	.	1.g	-ne,
1.G_	.	.	1d	.	.	1.g	.	1.r	.	.	1.r	.
.	.	.	2d\	.	.	.	.	.	.	.	.	.
1.G_	.	.	1B	.	.	1.g	-bis.	1.r	.	.	1dd	lar-
.	.	.	2c\	-mi-	.	.	.	.	.	.	2cc\	.
=23	=23	=23	=23	=23	=23	=23	=23	=23	=23	=23	=23	=23
0.G]	.	.	1.d	-ne.	.	0.g	Et	1dd	Ma-	.	1b	-gi-
.	.	.	.	.	.	.	.	2cc\	-gnum	.	2cc\	.
.	.	.	1.r	.	.	.	.	1b	no-	.	2dd\	.
.	.	.	.	.	.	.	.	.	.	.	2.ee\	-tus
.	.	.	.	.	.	.	.	2cc\	-men	.	.	.
.	.	.	.	.	.	.	.	.	.	.	4dd\	.
1.G	-mens	.	1B	Ma-	.	1d	pro-	1dd	Do-	.	1dd	est
.	.	.	2c\	.	.	2e/	.	2cc\	-mi-	.	2r	.
=24	=24	=24	=24	=24	=24	=24	=24	=24	=24	=24	=24	=24
!!linebreak:original
1G	de	.	1d	-gnum	.	1g	-ce-	2b\	-ni	.	2.dd\	no-
.	.	.	.	.	.	.	.	2.dd\	E-	.	.	.
.	.	.	.	.	.	.	.	.	.	.	4ee\	.
2D\	Vir-	.	2d\	no-	.	2f/	-dens	.	.	.	2ff\	.
.	.	.	.	.	.	.	.	4cc\	.	.	.	.
2G\	-gi-	.	2G/	-men	.	2g/	ho-	2b\	-ma-	.	2.gg\	.
1D	-ne	.	1d	Do-	.	2a/	.	1a	-nu-	.	.	.
.	.	.	.	.	.	.	.	.	.	.	4ff\	.
.	.	.	.	.	.	2d/	-mo,	.	.	.	2ff\	.
1.r	.	.	2e\	-mi-	.	2r	.	1.g	-el	.	2gg\	.
.	.	.	1c	-ni	.	2g/	et	.	.	.	2.ee\	.
.	.	.	.	.	.	2a/	pro-	.	.	.	.	.
.	.	.	.	.	.	.	.	.	.	.	4dd\	.
=25	=25	=25	=25	=25	=25	=25	=25	=25	=25	=25	=25	=25
1.r	.	.	2d\	E-	.	2f/	-ce-	1.r	.	.	1dd	.
.	.	.	1A	-ma-	.	1e	-dens	.	.	.	.	.
.	.	.	.	.	.	.	.	.	.	.	2cc#i\	.
[1.G	et	.	1B	.	.	1d	ho-	1dd	quod	.	2dd\	-bis
.	.	.	.	.	.	.	.	.	.	.	2r	.
.	.	.	2A/	-nu-	.	2d/	-mo	2cc\	an-	.	2r	.
1G]	.	.	2B\	-el	.	2.d/	si-	1b	-nun-	.	1dd	su-
.	.	.	2G/	.	.	.	.	.	.	.	.	.
.	.	.	.	.	.	4e/	.	.	.	.	.	.
2A\	pro-	.	2r	.	.	2f/	-ne	2cc\	-ci-	.	2ccni\	-am
=26	=26	=26	=26	=26	=26	=26	=26	=26	=26	=26	=26	=26
2G\	-ce-	.	1.d	quod	.	2g/	se-	1dd	-a-	.	2b\	de-
2D\	-dens	.	.	.	.	2a/	.	.	.	.	2.a/	-i-
2F\	ho-	.	.	.	.	2f/	-mi-	2cc\	-tum	.	.	.
.	.	.	.	.	.	.	.	.	.	.	4g/	.
2G\	-mo	.	1d	an-	.	2d/	-ne.	2b\	est	.	2g/	-ta-
2D\	si-	.	.	.	.	1r	.	2.a/	per	.	2a/	.
2G\	-ne	.	2B\	-nun-	.	.	.	.	.	.	2b\	.
.	.	.	.	.	.	.	.	4g/	.	.	.	.
2B\	se-	.	2.d\	-ci-	.	1.r	.	1g	Ga-	.	2g/	.
1A	.	.	.	.	.	.	.	.	.	.	2.a/	.
.	.	.	4c\	.	.	.	.	.	.	.	.	.
.	.	.	2c\	-a-	.	.	.	2f#i/	.	.	.	.
.	.	.	.	.	.	.	.	.	.	.	4g/	.
=27	=27	=27	=27	=27	=27	=27	=27	=27	=27	=27	=27	=27
1.G	-mi-	.	1d	-tum	.	1g	Ma-	1.g	-bri-	.	1.b	.
.	.	.	2d\	est	.	2f/	-gnum	.	.	.	.	.
1.A	.	.	2c\	.	.	1e	no-	1.r	.	.	1.cc	.
.	.	.	2A/	.	.	.	.	.	.	.	.	.
.	.	.	2c\	.	.	2f/	-men	.	.	.	.	.
1G	-ne,	.	2d\	.	.	1g	Do-	1.r	.	.	1.b	-tem,
.	.	.	2.d\	.	.	.	.	.	.	.	.	.
2D\	lar-	.	.	.	.	2f/	-mi-	.	.	.	.	.
.	.	.	4c\	.	.	.	.	.	.	.	.	.
=28	=28	=28	=28	=28	=28	=28	=28	=28	=28	=28	=28	=28
!!linebreak:original
2G\	.	.	2B\	.	.	2e/	-ni	1.r	.	.	1.r	.
1F	-gi-	.	1A	.	.	1d	E-	.	.	.	.	.
2E\	.	.	2.G/	.	.	2.c/	-ma-	1.r	.	.	2r	.
1D	-tus	.	.	.	.	.	.	.	.	.	2r	.
.	.	.	4F/	.	.	4B/	.	.	.	.	.	.
.	.	.	2F/	.	.	2B/	-nu-	.	.	.	2dd\	su-
[1.C	est	.	1G	.	.	1.c	-el	1.r	.	.	2ee\	.
.	.	.	.	.	.	.	.	.	.	.	2cc\	.
.	.	.	[2c\	.	.	.	.	.	.	.	[2ee\	-am
=29	=29	=29	=29	=29	=29	=29	=29	=29	=29	=29	=29	=29
2C/]	.	.	2c\]	.	.	1r	.	1.r	.	.	2ee\]	.
1G	no-	.	1d	su-	.	.	.	.	.	.	2.dd\	de-
.	.	.	.	.	.	2r	.	.	.	.	.	.
.	.	.	.	.	.	.	.	.	.	.	4cc\	.
2G\	-bis	.	2d\	-am	.	1g	quod	1.r	.	.	2b\	-i-
4E\	su-	.	2c\	de-	.	.	.	.	.	.	2ee\	-ta-
4C/	.	.	.	.	.	.	.	.	.	.	.	.
2D\	.	.	4A/	-i-	.	2f/	an-	.	.	.	2dd\	.
.	.	.	4B\	.	.	.	.	.	.	.	.	.
1C	-am	.	2c\	-ta-	.	1e	-nun-	1.r	.	.	2ee\	.
.	.	.	2e\	.	.	.	.	.	.	.	2.gg\	.
2D\	de-	.	2d\	-tem	.	2f/	-ci-	.	.	.	.	.
.	.	.	.	.	.	.	.	.	.	.	4ff\	.
=30	=30	=30	=30	=30	=30	=30	=30	=30	=30	=30	=30	=30
4E\	-i-	.	2r	.	.	1g	-a-	1.r	.	.	2ee\	.
4F\	.	.	.	.	.	.	.	.	.	.	.	.
2G\	-ta-	.	2d\	su-	.	.	.	.	.	.	4b\	.
.	.	.	.	.	.	.	.	.	.	.	4cc\	.
2D\	.	.	2B\	-am	.	2f/	-tum	.	.	.	2dd\	.
2C/	.	.	2c\	de-	.	1g	est	1.r	.	.	2ee\	.
2BB/	.	.	2d\	-i-	.	.	.	.	.	.	2.dd\	.
1C	.	.	2.e\	-ta-	.	2e/	per	.	.	.	.	.
.	.	.	.	.	.	.	.	.	.	.	4cc\	.
.	.	.	.	.	.	2c/	Ga-	1.r	.	.	1cc	.
.	.	.	4f\	.	.	.	.	.	.	.	.	.
1G	.	.	1g	.	.	1d	-bri-	.	.	.	.	.
.	.	.	.	.	.	.	.	.	.	.	2b\	.
=31	=31	=31	=31	=31	=31	=31	=31	=31	=31	=31	=31	=31
[1.Cl	-tem.	.	[1.gl	-tem.	.	[1.cl	-el.	[1.gl	-el.	.	[1.ccl	-tem.
1.C_	.	.	1.g_	.	.	1.c_	.	1.g_	.	.	1.cc_	.
1.C]	.	.	1.g]	.	.	1.c]	.	1.g]	.	.	1.cc]	.
!!LO:LB:i:g=z
=32||	=32||	=32||	=32||	=32||	=32||	=32||	=32||	=32||	=32||	=32||	=32||	=32||
!!pagebreak:original
*>B	*>B	*>B	*>B	*>B	*>B	*>B	*>B	*>B	*>B	*>B	*>B	*>B
!!section: Iocundare die theotice - Verbum caro factus est - Hodie apparuit
!!!OMD: Iocundare die theotice - Verbum caro factus est - Hodie apparuit
*M3/1	*	*	*M3/1	*	*	*M3/1	*	*M3/1	*	*	*M3/1	*
*met(O)	*	*	*met(O)	*	*	*met(O)	*	*met(O)	*	*	*met(O)	*
0.r	.	.	1c	Io-	.	1c	Io-	0.r	.	.	1cc	Io-
.	.	.	2c\	-cun-	.	1e	-cun-	.	.	.	1cc	-cun-
.	.	.	2B\	-da-	.	.	.	.	.	.	.	.
.	.	.	1A	-re	.	1f	-da-	.	.	.	1cc	-da-
=33	=33	=33	=33	=33	=33	=33	=33	=33	=33	=33	=33	=33
0.r	.	.	0G	di-	.	1g	.	0.r	.	.	1b	-re
.	.	.	.	.	.	1.b	.	.	.	.	0dd	di-
.	.	.	1G	-e	.	.	.	.	.	.	.	.
.	.	.	.	.	.	2a/	-re	.	.	.	.	.
=34	=34	=34	=34	=34	=34	=34	=34	=34	=34	=34	=34	=34
0.r	.	.	1A	the-	.	0a	di-	0.r	.	.	1cc	-e
.	.	.	0d	-o-	.	.	.	.	.	.	1.ff	the-
.	.	.	.	.	.	2.a/	-e	.	.	.	.	.
.	.	.	.	.	.	.	.	.	.	.	2ee\	.
.	.	.	.	.	.	4b\	.	.	.	.	.	.
=35	=35	=35	=35	=35	=35	=35	=35	=35	=35	=35	=35	=35
0.r	.	.	1c	-ti-	.	2cc\	the-	0.r	.	.	1ee	-o-
.	.	.	.	.	.	2.cc\	-o-	.	.	.	.	.
.	.	.	1G	-ce	.	.	.	.	.	.	1dd	.
.	.	.	.	.	.	4b\	.	.	.	.	.	.
.	.	.	.	.	.	2b\	-ti-	.	.	.	.	.
.	.	.	2r	.	.	2a/	.	.	.	.	[1ee	.
.	.	.	[2c\	tu-	.	2g/	.	.	.	.	.	.
=36	=36	=36	=36	=36	=36	=36	=36	=36	=36	=36	=36	=36
0.r	.	.	2c\]	.	.	1a	-ce,	0.r	.	.	2ee\]	.
.	.	.	1d	-mu-	.	.	.	.	.	.	2.ff\	.
.	.	.	.	.	.	1d	tu-	.	.	.	.	.
.	.	.	.	.	.	.	.	.	.	.	4ee\	.
.	.	.	2B\	-la	.	.	.	.	.	.	1dd	.
.	.	.	1A	fe-	.	1e	-mu-	.	.	.	.	.
.	.	.	.	.	.	.	.	.	.	.	2cc#i\	-ti-
=37	=37	=37	=37	=37	=37	=37	=37	=37	=37	=37	=37	=37
!!linebreak:original
0.r	.	.	2.B\	-sto	.	1d	-la	0.r	.	.	0dd	-ce,
.	.	.	4G/	.	.	.	.	.	.	.	.	.
.	.	.	0G	o-	.	0g	fe-	.	.	.	.	.
.	.	.	.	.	.	.	.	.	.	.	1b	tu-
=38	=38	=38	=38	=38	=38	=38	=38	=38	=38	=38	=38	=38
0.r	.	.	1G	-mni-	.	1b	-sto	0.r	.	.	1dd	-mu-
.	.	.	1d	.	.	1a	.	.	.	.	1ff	.
.	.	.	2e\	.	.	1g	o-	.	.	.	2ee\	-la
.	.	.	[2c\	.	.	.	.	.	.	.	[2ee\	fe-
=39	=39	=39	=39	=39	=39	=39	=39	=39	=39	=39	=39	=39
0.r	.	.	4c\]	.	.	1cc	-mni-	0.r	.	.	4ee\]	.
.	.	.	4B\	.	.	.	.	.	.	.	4dd\	.
.	.	.	2A/	.	.	.	.	.	.	.	2cc\	.
.	.	.	2G/	-que	.	2b\	.	.	.	.	2dd\	.
.	.	.	1c	me-	.	2g/	.	.	.	.	2ee\	.
.	.	.	.	.	.	2.a/	.	.	.	.	2cc\	.
.	.	.	2d\	-sto	.	.	.	.	.	.	[2b\	.
.	.	.	.	.	.	4g/	.	.	.	.	.	.
=40	=40	=40	=40	=40	=40	=40	=40	=40	=40	=40	=40	=40
0.r	.	.	2.e\	gau-	.	2.g/	-que	0.r	.	.	4b\]	.
.	.	.	.	.	.	.	.	.	.	.	4a/	.
.	.	.	.	.	.	.	.	.	.	.	1g	.
.	.	.	4f\	.	.	4f/	.	.	.	.	.	.
.	.	.	2g\	.	.	2e/	me-	.	.	.	.	.
.	.	.	2e\	.	.	1g	.	.	.	.	1cc	.
.	.	.	1d	.	.	.	.	.	.	.	.	.
.	.	.	.	.	.	2f/	.	.	.	.	2b\	.
=41	=41	=41	=41	=41	=41	=41	=41	=41	=41	=41	=41	=41
0C	Ver-	.	1c	.	.	1g	.	0.r	.	.	1cc	-sto
.	.	.	2G/	.	.	2e/	.	.	.	.	1r	.
.	.	.	1c	.	.	2f/	.	.	.	.	.	.
1r	.	.	.	.	.	1g	-sto	.	.	.	1ee	o-
.	.	.	2B\	-di-	.	.	.	.	.	.	.	.
=42	=42	=42	=42	=42	=42	=42	=42	=42	=42	=42	=42	=42
!!linebreak:original
1C	-bum	.	0G	-o.	.	0g	gau-	0.r	.	.	0ee	-mni-
2E\	ca-	.	.	.	.	.	.	.	.	.	.	.
2G\	-ro	.	.	.	.	.	.	.	.	.	.	.
2F\	fa-	.	1D	.	.	[1a	.	.	.	.	2.dd\	-que
2E\	.	.	.	.	.	.	.	.	.	.	.	.
.	.	.	.	.	.	.	.	.	.	.	4cc\	.
=43	=43	=43	=43	=43	=43	=43	=43	=43	=43	=43	=43	=43
1F	-ctum	.	1r	.	.	1a]	.	0.r	.	.	2cc\	me-
.	.	.	.	.	.	.	.	.	.	.	2a/	.
1G	.	.	1r	.	.	0g	.	.	.	.	1.b	.
2G\	est	.	1G	Ver-	.	.	.	.	.	.	.	.
2r	.	.	.	.	.	.	.	.	.	.	[2dd\	.
=44	=44	=44	=44	=44	=44	=44	=44	=44	=44	=44	=44	=44
1G	fa-	.	2B\	-bum	.	1g	-di-	0.r	.	.	4dd\]	.
.	.	.	.	.	.	.	.	.	.	.	4cc\	.
.	.	.	2d\	ca-	.	.	.	.	.	.	2b\	.
2A\	.	.	2c\	-ro	.	0e	-o.	.	.	.	2a/	-sto
4G\	.	.	2B\	fa-	.	.	.	.	.	.	2.a/	gau-
4F\	.	.	.	.	.	.	.	.	.	.	.	.
1E	-ctum	.	1c	-ctum	.	.	.	.	.	.	.	.
.	.	.	.	.	.	.	.	.	.	.	4g/	.
.	.	.	.	.	.	.	.	.	.	.	2g/	.
=45	=45	=45	=45	=45	=45	=45	=45	=45	=45	=45	=45	=45
1D	est	.	1d	.	.	1r	.	0.r	.	.	2.f/	.
.	.	.	.	.	.	.	.	.	.	.	4g/	.
2F\	et	.	1d	est.	.	1r	.	.	.	.	1.a	.
2G\	.	.	.	.	.	.	.	.	.	.	.	.
1A	ha-	.	1r	.	.	1c	Ver-	.	.	.	.	.
.	.	.	.	.	.	.	.	.	.	.	2cc\	.
=46	=46	=46	=46	=46	=46	=46	=46	=46	=46	=46	=46	=46
2G\	-bi-	.	2.B\	Ver-	.	2e/	-bum	0.r	.	.	2b\	.
4F\	-ta-	.	.	.	.	2g/	ca-	.	.	.	2g/	.
4E\	.	.	4c\	.	.	.	.	.	.	.	.	.
2D\	-vit	.	2d\	-bum	.	2f/	-ro	.	.	.	2a/	.
2G\	in	.	2B\	ca-	.	2e/	fa-	.	.	.	2b\	.
1A	no-	.	1c	-ro	.	1f	-ctum	.	.	.	2.a/	.
.	.	.	.	.	.	.	.	.	.	.	4g/	-dio-
=47	=47	=47	=47	=47	=47	=47	=47	=47	=47	=47	=47	=47
!!pagebreak:original
0.G	-bis,	.	0d	fa-	.	1g	.	0.r	.	.	1b	-o.
.	.	.	.	.	.	1g	est,	.	.	.	1r	.
.	.	.	1B	.	.	2r	.	.	.	.	1g	Ver-
.	.	.	.	.	.	2d/	ver-	.	.	.	.	.
=48	=48	=48	=48	=48	=48	=48	=48	=48	=48	=48	=48	=48
0.r	.	.	1G	.	.	2.g/	-bum	0.r	.	.	2b\	-bum
.	.	.	.	.	.	.	.	.	.	.	2dd\	ca-
.	.	.	.	.	.	4f/	.	.	.	.	.	.
.	.	.	0A	.	.	2e/	ca-	.	.	.	2cc\	-ro
.	.	.	.	.	.	2d/	-ro	.	.	.	2b\	fa-
.	.	.	.	.	.	1e	fa-	.	.	.	1cc	-ctum
=49	=49	=49	=49	=49	=49	=49	=49	=49	=49	=49	=49	=49
0.r	.	.	1B	-ctum	.	1d	-ctum	1r	.	.	1dd	.
.	.	.	0G	est,	.	0g	est,	1r	.	.	1dd	est.
.	.	.	.	.	.	.	.	1g	Ver-	.	1r	.
=50	=50	=50	=50	=50	=50	=50	=50	=50	=50	=50	=50	=50
0.r	.	.	0.r	.	.	1r	.	2b\	-bum	.	1dd	Ho-
.	.	.	.	.	.	.	.	2dd\	ca-	.	.	.
.	.	.	.	.	.	1.a	ver-	2cc\	-ro	.	1.ee	-stes
.	.	.	.	.	.	.	.	2b\	fa-	.	.	.
.	.	.	.	.	.	.	.	1cc	-ctum	.	.	.
.	.	.	.	.	.	2g/	-bum	.	.	.	4dd\	.
.	.	.	.	.	.	.	.	.	.	.	4cc\	.
=51	=51	=51	=51	=51	=51	=51	=51	=51	=51	=51	=51	=51
[0.G	in	.	0d	fa-	.	0g	ca-	0dd	est	.	0b	nunc
.	.	.	1d	-ctum	.	2g/	-ro	2r	.	.	1b	ar-
.	.	.	.	.	.	2f/	.	2dd\	et	.	.	.
=52	=52	=52	=52	=52	=52	=52	=52	=52	=52	=52	=52	=52
!!linebreak:original
1G]	.	.	1B	.	.	1d	fa-	1dd	ha-	.	1g	-te
0C	.	.	0c	.	.	1c	.	1ee	-bi-	.	1.g	vir-
.	.	.	.	.	.	2e/	.	2.gg\	-ta-	.	.	.
.	.	.	.	.	.	2f/	-ctum	.	.	.	2a/	.
.	.	.	.	.	.	.	.	4ff\	.	.	.	.
=53	=53	=53	=53	=53	=53	=53	=53	=53	=53	=53	=53	=53
1r	.	.	1r	.	.	[0.g	est,	2ee\	-vit	.	1b	-go
.	.	.	.	.	.	.	.	2dd\	in	.	.	.
0C	no-	.	0c	est,	.	.	.	0ee	no-	.	0cc	bo-
=54	=54	=54	=54	=54	=54	=54	=54	=54	=54	=54	=54	=54
1BB	-bis,	.	1r	.	.	0.g]	.	1dd	.	.	1dd	.
0C	.	.	0c	fa-	.	.	.	0cc	.	.	1.ee	.
.	.	.	.	.	.	.	.	.	.	.	2dd\	.
=55	=55	=55	=55	=55	=55	=55	=55	=55	=55	=55	=55	=55
0.G	.	.	0d	.	.	1r	.	0b	-bis	.	1dd	-na
.	.	.	.	.	.	1r	.	.	.	.	1r	.
.	.	.	1B	.	.	1g	et	1r	.	.	1gg	men-
=56	=56	=56	=56	=56	=56	=56	=56	=56	=56	=56	=56	=56
0c	et	.	0e	-ctum	.	2g/	ha-	0.r	.	.	2.gg\	-tis
.	.	.	.	.	.	2a/	-bi-	.	.	.	.	.
.	.	.	.	.	.	.	.	.	.	.	4ff\	.
.	.	.	.	.	.	2.cc\	-ta-	.	.	.	2ee\	ab
.	.	.	.	.	.	.	.	.	.	.	2dd\	.
.	.	.	.	.	.	4b\	.	.	.	.	.	.
2.c\	vi-	.	1A	est	.	2a/	-vit	.	.	.	1ee	ar-
.	.	.	.	.	.	2g/	in	.	.	.	.	.
4B\	.	.	.	.	.	.	.	.	.	.	.	.
=57	=57	=57	=57	=57	=57	=57	=57	=57	=57	=57	=57	=57
!!linebreak:original
2A\	.	.	0.r	.	.	1a	no-	0.r	.	.	2cc\	.
2D\	.	.	.	.	.	.	.	.	.	.	2.ff\	.
2E\	.	.	.	.	.	2e/	.	.	.	.	.	.
.	.	.	.	.	.	.	.	.	.	.	4ee\	.
2C/	-di-	.	.	.	.	2g/	.	.	.	.	1ee	.
1D	-mus	.	.	.	.	1f	.	.	.	.	.	.
.	.	.	.	.	.	.	.	.	.	.	2dd\	.
=58	=58	=58	=58	=58	=58	=58	=58	=58	=58	=58	=58	=58
1r	.	.	0.r	.	.	1e	-bis	1b	et	.	0ee	-ce
0E	glo-	.	.	.	.	2r	.	2b\	vi-	.	.	.
.	.	.	.	.	.	2e/	et	2b\	-di-	.	.	.
.	.	.	.	.	.	2e/	vi-	2b\	-mus	.	1r	.
.	.	.	.	.	.	2e/	-di-	2b\	glo-	.	.	.
=59	=59	=59	=59	=59	=59	=59	=59	=59	=59	=59	=59	=59
1C	-riam	.	0.r	.	.	2e/	-mus	2.cc\	.	.	1ee	a-
.	.	.	.	.	.	2c/	glo-	.	.	.	.	.
.	.	.	.	.	.	.	.	4b\	.	.	.	.
1r	.	.	.	.	.	2d/	.	2a/	-ri-	.	2ff\	.
.	.	.	.	.	.	2e/	.	2g/	-am	.	2.ee\	-ni-
1r	.	.	.	.	.	1f	.	1a	e-	.	.	.
.	.	.	.	.	.	.	.	.	.	.	4dd\	.
.	.	.	.	.	.	.	.	.	.	.	2dd\	-me
=60	=60	=60	=60	=60	=60	=60	=60	=60	=60	=60	=60	=60
1E	e-	.	0.r	.	.	1e	.	1b	-ius.	.	2.ee\	fe-
.	.	.	.	.	.	.	.	.	.	.	4dd\	.
1F	.	.	.	.	.	2.a/	.	1r	.	.	4cc\	.
.	.	.	.	.	.	.	.	.	.	.	4b\	.
.	.	.	.	.	.	.	.	.	.	.	2cc\	-li-
.	.	.	.	.	.	4g/	-ri-	.	.	.	.	.
2.G\	-ius	.	.	.	.	1g	-am	1r	.	.	2b\	-ci-
.	.	.	.	.	.	.	.	.	.	.	2ee\	-ter
8F\L	.	.	.	.	.	.	.	.	.	.	.	.
8E\J	.	.	.	.	.	.	.	.	.	.	.	.
=61	=61	=61	=61	=61	=61	=61	=61	=61	=61	=61	=61	=61
2D\	u-	.	0.r	.	.	2.a/	e-	0.r	.	.	2ff\	i-
2C/	-ni-	.	.	.	.	.	.	.	.	.	2.ee\	.
.	.	.	.	.	.	4g/	.	.	.	.	.	.
1D	-ge-	.	.	.	.	2f/	.	.	.	.	.	.
.	.	.	.	.	.	.	.	.	.	.	4dd\	.
.	.	.	.	.	.	2d/	.	.	.	.	1dd	.
1A	.	.	.	.	.	1e	.	.	.	.	.	.
.	.	.	.	.	.	.	.	.	.	.	2cc#i\	.
=62	=62	=62	=62	=62	=62	=62	=62	=62	=62	=62	=62	=62
!!pagebreak:original
*	*	*	*	*	*	*	*	*M9/2	*	*	*	*
*	*	*	*	*	*	*	*	*met(3)	*	*	*	*
1B	-ni-	.	0.r	.	.	1d	-ius	3%2dd	Ho-	.	1dd	-te
.	.	.	.	.	.	.	.	3dd\	-di-	.	.	.
*	*	*	*	*	*	*M9/2	*	*	*	*	*	*
*	*	*	*	*	*	*met(3)	*	*	*	*	*	*
1G	.	.	.	.	.	3%2g	Ho-	3%2dd	-e	.	1r	.
.	.	.	.	.	.	3g/	-di-	3ee\	ap-	.	.	.
*	*	*	*	*	*	*	*	*	*	*	*M9/2	*
*	*	*	*	*	*	*	*	*	*	*	*met(3)	*
1G	-ti	.	.	.	.	3%2g	-e	3%2gg	-pa-	.	3%2b	pro
.	.	.	.	.	.	3a/	ap-	3ff\	-ru-	.	3a/	.
=63	=63	=63	=63	=63	=63	=63	=63	=63	=63	=63	=63	=63
*M9/2	*	*	*M9/2	*	*	*M9/2	*	*M9/2	*	*	*M9/2	*
*met()	*	*	*met()	*	*	*met()	*	*met()	*	*	*met()	*
!!primary-mensuration: met(3)
2%9r	.	.	2%9r	.	.	1cc	-pa-	1ee	-it	.	1a	no-
.	.	.	.	.	.	2b\	-ru-	2dd\	in	.	1dd	-bis
.	.	.	.	.	.	1a	-it	2ee\	Is-	.	.	.
.	.	.	.	.	.	.	.	1ee	-ra-	.	1cc#i	i-
.	.	.	.	.	.	2a/	in	.	.	.	.	.
.	.	.	.	.	.	1d	Is-	1dd	-hel	.	1dd	-ter,
.	.	.	.	.	.	2d/	-ra-	2r	.	.	2r	.
=64	=64	=64	=64	=64	=64	=64	=64	=64	=64	=64	=64	=64
2%9r	.	.	2%9r	.	.	1g	-hel	1dd	per	.	1b	pro
.	.	.	.	.	.	2r	.	2cc\	Ma-	.	2cc\	.
.	.	.	.	.	.	1g	per	1b	-ri-	.	1dd	no-
.	.	.	.	.	.	2e/	Ma-	2cc\	-am	.	2cc\	.
.	.	.	.	.	.	2d/	.	1dd	Vir-	.	2b\	-bis
.	.	.	.	.	.	1f	-ri-	.	.	.	1a	i-
.	.	.	.	.	.	.	.	2cc\	-gi-	.	.	.
=65	=65	=65	=65	=65	=65	=65	=65	=65	=65	=65	=65	=65
2%9r	.	.	2%9r	.	.	2g/	-am	1b	-nem	.	1g	.
.	.	.	.	.	.	2e/	.	.	.	.	.	.
.	.	.	.	.	.	1g	Vir-	2g/	na-	.	2e/	.
.	.	.	.	.	.	.	.	2a/	.	.	1d	-ter,
.	.	.	.	.	.	1f#i	-gi-	1a	-tus	.	.	.
.	.	.	.	.	.	.	.	.	.	.	2r	.
.	.	.	.	.	.	1g	-nem	1.g	est	.	1dd	nam
.	.	.	.	.	.	2fni/	et	.	.	.	2dd\	si-
=66	=66	=66	=66	=66	=66	=66	=66	=66	=66	=66	=66	=66
!!linebreak:original
*	*	*	*M9/2	*	*	*	*	*	*	*	*	*
*	*	*	*met(3)	*	*	*	*	*	*	*	*	*
2%9r	.	.	1.r	.	.	1g	per	1.r	.	.	2ee\	.
.	.	.	.	.	.	.	.	.	.	.	2.dd\	.
.	.	.	.	.	.	2e/	Io-	.	.	.	.	.
.	.	.	.	.	.	.	.	.	.	.	4cc\	.
.	.	.	1.r	.	.	2c/	.	1.r	.	.	1cc	.
.	.	.	.	.	.	1d	.	.	.	.	.	.
.	.	.	.	.	.	.	.	.	.	.	2b\	.
.	.	.	1c	Sunt	.	1c	-seph,	1.r	.	.	1cc	-ta
.	.	.	2d\	im-	.	2r	.	.	.	.	2r	.
=67	=67	=67	=67	=67	=67	=67	=67	=67	=67	=67	=67	=67
2%9r	.	.	1e	-ple-	.	1.c	per	1g	Sunt	.	1.cc	lo-
.	.	.	2f\	-ta	.	.	.	2a/	im-	.	.	.
.	.	.	1d	quae	.	1.G	Ma-	1b	-ple-	.	1.dd	-quar
.	.	.	2d\	prae-	.	.	.	2b\	-ta	.	.	.
.	.	.	1c	-di-	.	1g	-ri-	1cc	quae	.	1ee	pro-
.	.	.	2A/	-xit	.	2f/	-am	2cc\	prae-	.	2cc\	.
=68	=68	=68	=68	=68	=68	=68	=68	=68	=68	=68	=68	=68
2%9r	.	.	1G	Ga-	.	1g	Vir-	1b	-di-	.	1dd	-tec-
.	.	.	1d	.	.	2f/	-gi-	2b\	-xit	.	2b\	.
.	.	.	.	.	.	2d/	-nem	2cc\	Ga-	.	2a/	.
.	.	.	2c\	.	.	2.e/	.	2.a/	.	.	2cc\	.
.	.	.	2d\	.	.	.	.	.	.	.	2b\	.
.	.	.	.	.	.	4d/	.	4g/	.	.	.	.
.	.	.	2B\	.	.	1d	na-	1g	.	.	2g/	.
.	.	.	1A	-bri-	.	.	.	.	.	.	2.a/	.
.	.	.	.	.	.	2c/	-tus	2f#i/	-bri-	.	.	.
.	.	.	.	.	.	.	.	.	.	.	4g/	.
=69	=69	=69	=69	=69	=69	=69	=69	=69	=69	=69	=69	=69
2%9r	.	.	1G	-el,	.	1d	est.	1.g	-el	.	1b	-trix
.	.	.	2r	.	.	2r	.	.	.	.	2r	.
.	.	.	[1.G	quae	.	1g	Sunt	1.r	.	.	1b	tur-
.	.	.	.	.	.	2a/	im-	.	.	.	2cc\	.
.	.	.	1.G]	.	.	1b	-ple-	1.r	.	.	1dd	-ris
.	.	.	.	.	.	2b\	-ta	.	.	.	2dd\	ad
=70	=70	=70	=70	=70	=70	=70	=70	=70	=70	=70	=70	=70
!!linebreak:original
2%9r	.	.	1.r	.	.	1cc	quae	1.r	.	.	2ee\	.
.	.	.	.	.	.	.	.	.	.	.	1ee	en-
.	.	.	.	.	.	2b\	prae-	.	.	.	.	.
.	.	.	1.G	prae-	.	1b	-di-	1.r	.	.	1dd	.
.	.	.	.	.	.	2b\	-xit	.	.	.	1ee	.
.	.	.	1A	-di-	.	2cc\	Ga-	1.r	.	.	.	.
.	.	.	.	.	.	2.a/	.	.	.	.	2cc\	.
.	.	.	2B\	-xit	.	.	.	.	.	.	2dd\	.
.	.	.	.	.	.	4g/	.	.	.	.	.	.
=71	=71	=71	=71	=71	=71	=71	=71	=71	=71	=71	=71	=71
*M9/2	*	*	*	*	*	*	*	*	*	*	*	*
*met(3)	*	*	*	*	*	*	*	*	*	*	*	*
1.r	.	.	2G/	Ga-	.	1g	.	1.r	.	.	2b\	.
.	.	.	1d	-bri-	.	.	.	.	.	.	1a	.
.	.	.	.	.	.	2f#i/	-bri-	.	.	.	.	.
1.r	.	.	1G	-el	.	1.g	.	1.r	.	.	1g	-ter
.	.	.	2r	.	.	.	.	.	.	.	1r	.
1G	per	.	1.r	.	.	1.g	-el	1b	e-	.	.	.
.	.	.	.	.	.	.	.	.	.	.	1dd	es
2F\	Ma-	.	.	.	.	.	.	2a/	.	.	.	.
=72	=72	=72	=72	=72	=72	=72	=72	=72	=72	=72	=72	=72
1E	-ri-	.	1.r	.	.	1.r	.	1.g	-ya	.	1ee	a-
2F\	-am	.	.	.	.	.	.	.	.	.	2dd\	.
1G	Vir-	.	1.r	.	.	1.r	.	1b	vir-	.	1dd	-mi-
2E\	-gi-	.	.	.	.	.	.	2cc\	-go	.	1gg	.
1D	-nem	.	1.r	.	.	1.r	.	1dd	De-	.	.	.
.	.	.	.	.	.	.	.	.	.	.	2ff\	.
2D\	na-	.	.	.	.	.	.	2dd\	-um	.	[2dd\	.
=73	=73	=73	=73	=73	=73	=73	=73	=73	=73	=73	=73	=73
2A\	.	.	1.r	.	.	1.r	.	1ee	ge-	.	2dd\]	.
1A	-tus	.	.	.	.	.	.	.	.	.	2.cc#i\	-ca
.	.	.	.	.	.	.	.	2ee\	-nu-	.	.	.
.	.	.	.	.	.	.	.	.	.	.	4b\	.
1D	est	.	1.r	.	.	1.r	.	1dd	-it	.	1.dd	pi-
2r	.	.	.	.	.	.	.	2dd\	si-	.	.	.
1G	Sunt	.	1.d	Vir-	.	1.r	.	1b	-cut	.	1.dd	-is,
2A\	im-	.	.	.	.	.	.	2cc\	di-	.	.	.
=74	=74	=74	=74	=74	=74	=74	=74	=74	=74	=74	=74	=74
!!pagebreak:original
1B	-ple-	.	1d	-go	.	1.r	.	1dd	-vi-	.	1.r	.
2B\	-ta	.	2B\	.	.	.	.	2dd\	-na	.	.	.
1c	quae	.	1A	De-	.	1.r	.	1ee	vo-	.	1.r	.
2c\	prae-	.	2c\	-um	.	.	.	2ee\	-lu-	.	.	.
2B\	.	.	2d\	ge-	.	1.r	.	1dd	-it	.	1.r	.
1A	-di-	.	2e\	.	.	.	.	.	.	.	.	.
.	.	.	2f\	.	.	.	.	2cc\	cle-	.	.	.
=75	=75	=75	=75	=75	=75	=75	=75	=75	=75	=75	=75	=75
2G\	-xit	.	2g\	.	.	1.r	.	2b\	-men-	.	1.r	.
2F\	.	.	1d	.	.	.	.	2.a/	.	.	.	.
1G	Ga-	.	.	.	.	.	.	.	.	.	.	.
.	.	.	.	.	.	.	.	4g/	.	.	.	.
.	.	.	2B\	.	.	1.r	.	1g	.	.	1.r	.
1A	.	.	1c	.	.	.	.	.	.	.	.	.
.	.	.	.	.	.	.	.	2f#i/	-ti-	.	.	.
1.G	-bri-	.	2d\	.	.	1.r	.	1.g	-a	.	1.dd	pi-
.	.	.	2.B\	-nu-	.	.	.	.	.	.	.	.
.	.	.	4A/	.	.	.	.	.	.	.	.	.
=76	=76	=76	=76	=76	=76	=76	=76	=76	=76	=76	=76	=76
[1.C	-el	.	0.c	-it	.	1e	e-	1.r	.	.	1ee	.
.	.	.	.	.	.	2d/	.	.	.	.	2cc\	.
1.C_	.	.	.	.	.	1c	-ya	1.r	.	.	1ee	.
.	.	.	.	.	.	2r	.	.	.	.	2ff\	.
1.C]	.	.	1c	si-	.	1e	vir-	1.r	.	.	1gg	.
.	.	.	2d\	-cut	.	2f/	-go	.	.	.	2ff\	.
=77	=77	=77	=77	=77	=77	=77	=77	=77	=77	=77	=77	=77
1.r	.	.	1e	di-	.	1g	De-	1.r	.	.	2ee\	.
.	.	.	.	.	.	.	.	.	.	.	2dd\	.
.	.	.	1c	-vi-	.	2g/	-um	.	.	.	2ee\	.
1.r	.	.	.	.	.	1a	ge-	1.r	.	.	2ee\	.
.	.	.	2f\	-na	.	.	.	.	.	.	2.dd\	.
.	.	.	2g\	vo-	.	2a/	-nu-	.	.	.	.	.
.	.	.	.	.	.	.	.	.	.	.	4cc\	.
1.r	.	.	2e\	.	.	1g	-it	1.r	.	.	1cc	.
.	.	.	1d	-lu-	.	.	.	.	.	.	.	.
.	.	.	.	.	.	2f/	si-	.	.	.	2b\	.
=78	=78	=78	=78	=78	=78	=78	=78	=78	=78	=78	=78	=78
!!linebreak:original
1.r	.	.	1c	-it	.	1g	-cut	1.r	.	.	1cc	-is,
.	.	.	2r	.	.	2g/	di-	.	.	.	2r	.
1.r	.	.	1c	cle-	.	1e	-vi-	1.r	.	.	1g	o
.	.	.	2A/	.	.	2f/	-na	.	.	.	2a/	.
1.r	.	.	1G	-men-	.	2g/	vo-	1.r	.	.	2.b\	.
.	.	.	.	.	.	1a	.	.	.	.	.	.
.	.	.	.	.	.	.	.	.	.	.	4cc\	.
.	.	.	2F/	.	.	.	.	.	.	.	2dd\	.
=79	=79	=79	=79	=79	=79	=79	=79	=79	=79	=79	=79	=79
1.r	.	.	2G/	.	.	1g	-lu-	1.r	.	.	2b\	.
.	.	.	1A	.	.	.	.	.	.	.	2.cc\	.
.	.	.	.	.	.	2f#i/	-it	.	.	.	.	.
.	.	.	.	.	.	.	.	.	.	.	4dd\	.
1.r	.	.	2.G/	.	.	1g	cle-	1.r	.	.	2ee\	.
.	.	.	.	.	.	.	.	.	.	.	2.dd\	.
.	.	.	4A/	.	.	.	.	.	.	.	.	.
.	.	.	2B\	.	.	2fni/	-men-	.	.	.	.	.
.	.	.	.	.	.	.	.	.	.	.	4cc\	.
1.r	.	.	2c\	-ti-	.	2e/	.	1.r	.	.	1cc	.
.	.	.	1G	-a,	.	1d	-ti-	.	.	.	.	.
.	.	.	.	.	.	.	.	.	.	.	2b\	pri-
=80	=80	=80	=80	=80	=80	=80	=80	=80	=80	=80	=80	=80
*M3/1	*	*	*M3/1	*	*	*M3/1	*	*M3/1	*	*	*M3/1	*
*met(O)	*	*	*met(O)	*	*	*met(O)	*	*met(O)	*	*	*met(O)	*
1C	qua-	.	1r	.	.	1c	-a	0.r	.	.	1cc	-ma
1C	-si	.	1.c	qua-	.	2.e/	qua-	.	.	.	2.cc\	chri-
.	.	.	.	.	.	4e/	-si	.	.	.	4b\	.
1C	u-	.	.	.	.	2e/	u-	.	.	.	2g/	-sti-
.	.	.	[2c\	-si-	.	2e/	-ni-	.	.	.	[2a/	.
=81	=81	=81	=81	=81	=81	=81	=81	=81	=81	=81	=81	=81
2F\	-ni-	.	4c\]	.	.	2f/	-ge-	0.r	.	.	4a/]	.
.	.	.	4d\	.	.	.	.	.	.	.	4b\	.
2E\	-ge-	.	2e\	-u-	.	2g/	.	.	.	.	2cc\	.
1D	-ni-	.	2f\	-ni-	.	2a/	-ni-	.	.	.	2dd\	.
.	.	.	2d\	-ge-	.	2f/	-ti-	.	.	.	2ff\	.
1C	-ti-	.	2.e\	-ni-	.	1g	-a	.	.	.	2ee\	.
.	.	.	.	.	.	.	.	.	.	.	[2gg\	.
.	.	.	4d\	.	.	.	.	.	.	.	.	.
=82	=82	=82	=82	=82	=82	=82	=82	=82	=82	=82	=82	=82
!!linebreak:original
1C	-a	.	1c	-ti-	.	2e/	Pa-	[0.g	a.	.	4gg\]	.
.	.	.	.	.	.	.	.	.	.	.	4ff\	.
.	.	.	.	.	.	2g/	.	.	.	.	2ee\	.
2r	.	.	2d\	-a	.	2f/	.	.	.	.	2dd\	.
2C/	Pa-	.	1.g	Pa-	.	2e/	.	.	.	.	1cc	.
1G	.	.	.	.	.	1d	.	.	.	.	.	.
.	.	.	.	.	.	.	.	.	.	.	2b\	-co-
=83	=83	=83	=83	=83	=83	=83	=83	=83	=83	=83	=83	=83
0.Cl	-tre.	.	0.el	-tre.	.	0.cl	-tre.	0.g]l	.	.	0.ccl	-lis.
!!LO:LB:i:g=z
=84||	=84||	=84||	=84||	=84||	=84||	=84||	=84||	=84||	=84||	=84||	=84||	=84||
!!pagebreak:original
*>C	*>C	*>C	*>C	*>C	*>C	*>C	*>C	*>C	*>C	*>C	*>C	*>C
!!section: Puer natus est nobis - Mitibus - Universialis ecclesie - Sus vallasus
!!!OMD: Puer natus est nobis - Mitibus - Universialis ecclesie - Sus vallasus
*M6/1	*	*	*M6/1	*	*	*M6/1	*	*M6/1	*	*	*M6/1	*
*met(O2)	*	*	*met(O2)	*	*	*met(O2)	*	*met(O2)	*	*	*met(O2)	*
0r	.	.	0r	.	.	0c	Pu-	0r	.	.	0r	.
0r	.	.	0r	.	.	0g	.	0r	.	.	0g	Pu-
0r	.	.	0r	.	.	0g	-er	0r	.	.	0dd	.
=85	=85	=85	=85	=85	=85	=85	=85	=85	=85	=85	=85	=85
0r	.	.	0r	.	.	1.g	na-	0r	.	.	1dd	-er
.	.	.	.	.	.	.	.	.	.	.	1dd	na-
.	.	.	.	.	.	2f/	.	.	.	.	.	.
0r	.	.	0r	.	.	1g	.	0r	.	.	1ee	.
.	.	.	.	.	.	1.b-i	.	.	.	.	1dd	-tus
0r	.	.	0r	.	.	.	.	0r	.	.	1cc	.
.	.	.	.	.	.	2a/	-tus	.	.	.	.	.
.	.	.	.	.	.	1a	est	.	.	.	1cc	est
=86	=86	=86	=86	=86	=86	=86	=86	=86	=86	=86	=86	=86
0r	.	.	0r	.	.	1f	no-	0r	.	.	1dd	no-
.	.	.	.	.	.	1a	.	.	.	.	1cc	.
0r	.	.	0c	Pu-	.	1g	.	[0g	Pu-	.	0ee	.
.	.	.	.	.	.	1.cc	.	.	.	.	.	.
0r	.	.	0d	.	.	.	.	0g]	.	.	1dd	.
.	.	.	.	.	.	2b\	.	.	.	.	.	.
.	.	.	.	.	.	[1b	.	.	.	.	[1dd	.
=87	=87	=87	=87	=87	=87	=87	=87	=87	=87	=87	=87	=87
!!linebreak:original
0r	.	.	[0d	-er	.	1b]	.	[0dd	.	.	1dd]	.
.	.	.	.	.	.	1b	.	.	.	.	0gg	.
0r	.	.	0d_	.	.	1g	.	0dd]	.	.	.	.
.	.	.	.	.	.	1.g	.	.	.	.	2ff\	.
.	.	.	.	.	.	.	.	.	.	.	2ee\	.
0r	.	.	0d]	.	.	.	.	0dd	-er	.	0dd	-bis
.	.	.	.	.	.	4f/	.	.	.	.	.	.
.	.	.	.	.	.	4e/	.	.	.	.	.	.
.	.	.	.	.	.	1d	-bis	.	.	.	.	.
=88	=88	=88	=88	=88	=88	=88	=88	=88	=88	=88	=88	=88
0C	Pu-	.	0r	.	.	1c	et	0r	.	.	1r	.
.	.	.	.	.	.	1.g	.	.	.	.	1g	et
[0G	.	.	0r	.	.	.	.	0r	.	.	1dd	.
.	.	.	.	.	.	2f/	.	.	.	.	.	.
.	.	.	.	.	.	1g	.	.	.	.	1dd	fi-
0G]	.	.	0r	.	.	1g	fi-	0r	.	.	1ee	.
.	.	.	.	.	.	[1b-i	.	.	.	.	1dd	-li-
=89	=89	=89	=89	=89	=89	=89	=89	=89	=89	=89	=89	=89
!LO:TX:Z=10:t=bassus error?	!	!	!	!	!	!	!	!	!	!	!	!
0F	-er	.	0r	.	.	2b-\]	.	0r	.	.	0cc	-us
.	.	.	.	.	.	2a/	.	.	.	.	.	.
.	.	.	.	.	.	0a	.	.	.	.	.	.
0r	.	.	0r	.	.	.	.	0r	.	.	0b-i	.
.	.	.	.	.	.	1g	-li-	.	.	.	.	.
0r	.	.	0r	.	.	0a	-us	0r	.	.	1a	da-
.	.	.	.	.	.	.	.	.	.	.	[1cc	-tus
=90	=90	=90	=90	=90	=90	=90	=90	=90	=90	=90	=90	=90
0r	.	.	0r	.	.	1f	da-	0r	.	.	2cc\]	.
.	.	.	.	.	.	.	.	.	.	.	2dd\	.
.	.	.	.	.	.	1.g	.	.	.	.	1ee	est
0r	.	.	0r	.	.	.	.	0r	.	.	1.ee	no-
.	.	.	.	.	.	2f/	-tus	.	.	.	.	.
.	.	.	.	.	.	0f	est	.	.	.	.	.
.	.	.	.	.	.	.	.	.	.	.	2dd\	.
0r	.	.	0r	.	.	.	.	0r	.	.	1dd	-bis
.	.	.	.	.	.	1f	no-	.	.	.	1ff	.
=91	=91	=91	=91	=91	=91	=91	=91	=91	=91	=91	=91	=91
!!linebreak:original
0r	.	.	0r	.	.	1g	.	0r	.	.	1ee	et
.	.	.	.	.	.	1f	.	.	.	.	1dd	.
0r	.	.	0r	.	.	1.c	.	0r	.	.	2ee\	fi-
.	.	.	.	.	.	.	.	.	.	.	2.ee\	-li-
.	.	.	.	.	.	.	.	.	.	.	4dd\	.
.	.	.	.	.	.	2e/	.	.	.	.	2cc\	.
0r	.	.	0r	.	.	0d	.	0r	.	.	1.b	-us
.	.	.	.	.	.	.	.	.	.	.	2a/	.
=92	=92	=92	=92	=92	=92	=92	=92	=92	=92	=92	=92	=92
0r	.	.	0r	.	.	1c	.	0r	.	.	1cc	da-
.	.	.	.	.	.	1e	.	.	.	.	1cc	-tus
[0G	na-	.	[0d	na-	.	1d	.	0.dd	na-	.	2b\	est
.	.	.	.	.	.	.	.	.	.	.	2.dd\	.
.	.	.	.	.	.	0.g	-bis,	.	.	.	.	.
.	.	.	.	.	.	.	.	.	.	.	4cc\	.
.	.	.	.	.	.	.	.	.	.	.	4b\	.
.	.	.	.	.	.	.	.	.	.	.	4a/	.
0G]	.	.	0d]	.	.	.	.	.	.	.	1g	no-
.	.	.	.	.	.	.	.	1b	-tus	.	1b	.
=93	=93	=93	=93	=93	=93	=93	=93	=93	=93	=93	=93	=93
0A	.	.	0c	.	.	1f	cu-	1cc	est	.	1a	.
.	.	.	.	.	.	1e	.	1.ee	.	.	1cc	.
0G	.	.	1.d	.	.	0g	.	.	.	.	1b	-bis
.	.	.	.	.	.	.	.	4dd\	.	.	.	.
.	.	.	.	.	.	.	.	4cc\	.	.	.	.
.	.	.	.	.	.	.	.	1b	.	.	1g	.
.	.	.	2e\	-tus	.	.	.	.	.	.	.	.
1F	-tus	.	0f	est	.	0a	.	1a	no-	.	2r	.
.	.	.	.	.	.	.	.	.	.	.	1cc	mi-
1F	est	.	.	.	.	.	.	[1cc	.	.	.	.
.	.	.	.	.	.	.	.	.	.	.	2dd\	.
=94	=94	=94	=94	=94	=94	=94	=94	=94	=94	=94	=94	=94
0F	no-	.	1r	.	.	1.a	-ius	1cc]	.	.	1.ff	-ti-
.	.	.	1f	no-	.	.	.	1dd	.	.	.	.
.	.	.	.	.	.	2b\	.	.	.	.	2ee\	.
0C	.	.	1g	.	.	1cc	im-	1cc	.	.	1ee	-bus
.	.	.	1e	.	.	1.cc	-pe-	1.ee	.	.	1cc	.
0G	.	.	1.g	.	.	.	.	.	.	.	1dd	.
.	.	.	.	.	.	2b\	-ri-	2dd\	.	.	.	.
.	.	.	.	.	.	1b	-um	[1dd	-bis	.	[1gg	.
.	.	.	4f\	.	.	.	.	.	.	.	.	.
.	.	.	4e\	.	.	.	.	.	.	.	.	.
=95	=95	=95	=95	=95	=95	=95	=95	=95	=95	=95	=95	=95
!!pagebreak:original
0G	-bis	.	0d	-bis	.	1g	su-	0dd]	.	.	2gg\]	.
.	.	.	.	.	.	.	.	.	.	.	2ff\	.
.	.	.	.	.	.	1b	.	.	.	.	1dd	.
0r	.	.	0r	.	.	1cc	-per	0r	.	.	0ee	.
.	.	.	.	.	.	1a	hu-	.	.	.	.	.
0r	.	.	0r	.	.	2g/	.	0r	.	.	0ee	.
.	.	.	.	.	.	2a/	.	.	.	.	.	.
.	.	.	.	.	.	2g/	.	.	.	.	.	.
.	.	.	.	.	.	[2e/	.	.	.	.	.	.
=96	=96	=96	=96	=96	=96	=96	=96	=96	=96	=96	=96	=96
0r	.	.	0r	.	.	2e/]	.	0r	.	.	1ee	.
.	.	.	.	.	.	1g	.	.	.	.	.	.
.	.	.	.	.	.	.	.	.	.	.	2dd\	.
.	.	.	.	.	.	2e/	-me-	.	.	.	2ee\	.
0r	.	.	0r	.	.	1.g	-rum	0r	.	.	2dd\	.
.	.	.	.	.	.	.	.	.	.	.	1b	.
.	.	.	.	.	.	2f/	.	.	.	.	2.dd\	.
0r	.	.	0r	.	.	2g/	e-	0r	.	.	.	.
.	.	.	.	.	.	.	.	.	.	.	4cc\	.
.	.	.	.	.	.	2e/	.	.	.	.	1cc	.
.	.	.	.	.	.	1d	-ius:	.	.	.	.	.
.	.	.	.	.	.	.	.	.	.	.	2b\	.
=97	=97	=97	=97	=97	=97	=97	=97	=97	=97	=97	=97	=97
0C	et	.	0e	et	.	0c	et	[0g	et	.	0cc	.
[0G	.	.	[0d	.	.	1.B	vo-	0g]	.	.	1dd	.
.	.	.	.	.	.	.	.	.	.	.	1.dd	.
.	.	.	.	.	.	2c/	.	.	.	.	.	.
0G]	.	.	0d]	.	.	1d	-ca-	[0dd	.	.	.	.
.	.	.	.	.	.	.	.	.	.	.	2cc\	.
.	.	.	.	.	.	[1g	.	.	.	.	2b\	.
.	.	.	.	.	.	.	.	.	.	.	2a/	.
=98	=98	=98	=98	=98	=98	=98	=98	=98	=98	=98	=98	=98
0G	.	.	0d	.	.	2g/]	.	0dd]	.	.	0b	.
.	.	.	.	.	.	2f/	.	.	.	.	.	.
.	.	.	.	.	.	1g	.	.	.	.	.	.
0r	.	.	0r	.	.	1a	.	0r	.	.	1cc	.
.	.	.	.	.	.	1.cc	-bi-	.	.	.	1a	.
0r	.	.	0r	.	.	.	.	0r	.	.	1dd	.
.	.	.	.	.	.	2b\	.	.	.	.	.	.
.	.	.	.	.	.	1a	-tur	.	.	.	1cc	.
=99	=99	=99	=99	=99	=99	=99	=99	=99	=99	=99	=99	=99
!!linebreak:original
0r	.	.	0r	.	.	2d/	no-	0r	.	.	1ff	.
.	.	.	.	.	.	1a	-men	.	.	.	.	.
.	.	.	.	.	.	.	.	.	.	.	2ee\	.
.	.	.	.	.	.	2f/	e-	.	.	.	2ff\	.
0r	.	.	0r	.	.	1.a	.	0r	.	.	2ee\	.
.	.	.	.	.	.	.	.	.	.	.	1cc	.
.	.	.	.	.	.	2g/	.	.	.	.	2.ee\	.
0r	.	.	0r	.	.	2a/	.	0r	.	.	.	.
.	.	.	.	.	.	.	.	.	.	.	4dd\	.
.	.	.	.	.	.	2f/	.	.	.	.	1dd	.
.	.	.	.	.	.	1e	.	.	.	.	.	.
.	.	.	.	.	.	.	.	.	.	.	2cc#i\	.
=100	=100	=100	=100	=100	=100	=100	=100	=100	=100	=100	=100	=100
0G	fi-	.	0d	fi-	.	1d	.	0dd	fi-	.	1dd	.
.	.	.	.	.	.	1.g	.	.	.	.	1b	.
1C	.	.	1c	.	.	.	.	1ee	.	.	1cc	.
.	.	.	.	.	.	2f/	.	.	.	.	.	.
1G	.	.	1B	.	.	1g	.	1.dd	.	.	1dd	.
0A	-li-	.	1.c	.	.	1e	.	.	.	.	0a	.
.	.	.	.	.	.	.	.	2cc\	.	.	.	.
.	.	.	.	.	.	[1a	.	1cc	.	.	.	.
.	.	.	2d\	-li-	.	.	.	.	.	.	.	.
=101	=101	=101	=101	=101	=101	=101	=101	=101	=101	=101	=101	=101
0E	-us	.	0e	-us	.	1a]	.	0b	-li-	.	0r	.
.	.	.	.	.	.	1g#i	.	.	.	.	.	.
0F	.	.	0c	.	.	0a	-ius	[0a	-us	.	0cc	.
0D	.	.	0d	.	.	1r	.	0a]	.	.	1.ff	.
.	.	.	.	.	.	1a	ma-	.	.	.	.	.
.	.	.	.	.	.	.	.	.	.	.	2ee\	.
=102	=102	=102	=102	=102	=102	=102	=102	=102	=102	=102	=102	=102
0r	.	.	0r	.	.	1.g	-gni	0r	.	.	1ee	.
.	.	.	.	.	.	.	.	.	.	.	2dd\	.
.	.	.	.	.	.	2e/	con-	.	.	.	2ee\	.
0r	.	.	0r	.	.	2.f/	-si-	0r	.	.	2dd\	.
.	.	.	.	.	.	.	.	.	.	.	2.b\	.
.	.	.	.	.	.	4g/	.	.	.	.	.	.
.	.	.	.	.	.	2a/	.	.	.	.	.	.
.	.	.	.	.	.	.	.	.	.	.	4cc\	.
.	.	.	.	.	.	2b-i\	-li-	.	.	.	2dd\	.
0r	.	.	0r	.	.	2a/	.	0r	.	.	2.ee\	.
.	.	.	.	.	.	1f	-i	.	.	.	.	.
.	.	.	.	.	.	.	.	.	.	.	4dd\	.
.	.	.	.	.	.	.	.	.	.	.	2dd\	.
.	.	.	.	.	.	[2a/	An-	.	.	.	2cc\	.
=103	=103	=103	=103	=103	=103	=103	=103	=103	=103	=103	=103	=103
!!linebreak:original
0r	.	.	0r	.	.	4a/]	.	0r	.	.	2dd\	.
.	.	.	.	.	.	4g/	.	.	.	.	.	.
.	.	.	.	.	.	1g	.	.	.	.	2b\	.
.	.	.	.	.	.	.	.	.	.	.	1a	nos
.	.	.	.	.	.	2f#i/	.	.	.	.	.	.
0r	.	.	0r	.	.	0g	.	0r	.	.	1g	or-
.	.	.	.	.	.	.	.	.	.	.	1b	.
[0F	da-	.	0c	da-	.	[0a	.	[0cc	da-	.	1cc	.
.	.	.	.	.	.	.	.	.	.	.	[1a	.
=104	=104	=104	=104	=104	=104	=104	=104	=104	=104	=104	=104	=104
1F]	.	.	[0f	.	.	0a]	.	1cc]	.	.	1a]	.
1D	.	.	.	.	.	.	.	1.dd	-tus	.	1.f	.
1F	.	.	0f]	.	.	0a	.	.	.	.	.	.
.	.	.	.	.	.	.	.	2cc\	.	.	2e/	.
1F	.	.	.	.	.	.	.	1cc	est	.	1c	-bis
0F	-tus	.	[0c	-tus	.	0f	.	0cc	no-	.	0r	.
=105	=105	=105	=105	=105	=105	=105	=105	=105	=105	=105	=105	=105
0C	est	.	0c]	.	.	0e	.	1cc	.	.	1.g	post
.	.	.	.	.	.	.	.	1.ee	.	.	.	.
.	.	.	.	.	.	.	.	.	.	.	2a/	.
0r	.	.	0r	.	.	1.g	.	.	.	.	2b\	ma-
.	.	.	.	.	.	.	.	4dd\	.	.	2cc\	.
.	.	.	.	.	.	.	.	4cc\	.	.	.	.
.	.	.	.	.	.	.	.	1b	.	.	1dd	-la
.	.	.	.	.	.	2f/	.	.	.	.	.	.
0r	.	.	0r	.	.	1e	.	1cc	.	.	1ee	.
.	.	.	.	.	.	1d	.	1dd	.	.	2ff\	.
.	.	.	.	.	.	.	.	.	.	.	[2dd\	.
=106	=106	=106	=106	=106	=106	=106	=106	=106	=106	=106	=106	=106
0r	.	.	0r	.	.	1g	.	2b\	.	.	2dd\]	.
.	.	.	.	.	.	.	.	2g/	.	.	1gg	.
.	.	.	.	.	.	1d	.	1a	.	.	.	.
.	.	.	.	.	.	.	.	.	.	.	2ff#i\	.
0G	no-	.	0d	est	.	1B	.	0g	-bis	.	1.gg	.
.	.	.	.	.	.	1.d	.	.	.	.	.	.
.	.	.	.	.	.	.	.	.	.	.	2ffni\	.
1C	.	.	0e	no-	.	.	.	0r	.	.	1ee	.
.	.	.	.	.	.	2c/	.	.	.	.	.	.
1E	.	.	.	.	.	[1c	.	.	.	.	1cc	.
=107	=107	=107	=107	=107	=107	=107	=107	=107	=107	=107	=107	=107
!!pagebreak:original
0D	.	.	0f	.	.	1c]	.	0r	.	.	1.dd	.
.	.	.	.	.	.	1B	-ge-	.	.	.	.	.
.	.	.	.	.	.	.	.	.	.	.	4cc\	.
.	.	.	.	.	.	.	.	.	.	.	4dd\	.
0C	.	.	1.e	.	.	0c	-lus	2cc\	u-	.	1.ee	cel
.	.	.	.	.	.	.	.	2cc\	-ni-	.	.	.
.	.	.	.	.	.	.	.	2cc\	-ver-	.	.	.
.	.	.	2f\	.	.	.	.	2cc\	-sa-	.	4dd\	.
.	.	.	.	.	.	.	.	.	.	.	4cc\	.
1r	.	.	1g	.	.	0r	.	1b	-lis	.	1dd	no-
1C	.	.	2e\	.	.	.	.	1cc	ec-	.	1ee	.
.	.	.	2c\	.	.	.	.	.	.	.	.	.
=108	=108	=108	=108	=108	=108	=108	=108	=108	=108	=108	=108	=108
1G	.	.	2d\	.	.	0r	.	1b	-cle-	.	1dd	.
.	.	.	1g	.	.	.	.	.	.	.	.	.
1A	.	.	.	.	.	.	.	1cc	-si-	.	1cc	.
.	.	.	2f\	.	.	.	.	.	.	.	.	.
0G	.	.	2g\	.	.	0r	.	0dd	-a	.	0b	-lis.
.	.	.	2f\	.	.	.	.	.	.	.	.	.
.	.	.	1d	-bis	.	.	.	.	.	.	.	.
0C	-bis	.	2c\	u-	.	0r	.	2ee\	con-	.	0r	.
.	.	.	2c\	-ni-	.	.	.	2ee\	-gau-	.	.	.
.	.	.	2c\	-ver-	.	.	.	2ee\	-de-	.	.	.
.	.	.	2c\	-sa-	.	.	.	2cc\	-at	.	.	.
=109	=109	=109	=109	=109	=109	=109	=109	=109	=109	=109	=109	=109
1r	.	.	1B	-lis	.	0r	.	1dd	bis	.	0r	.
1C	cu-	.	1c	ec-	.	.	.	1ee	tem-	.	.	.
1G	-ius	.	1B	-cle-	.	0r	.	1dd	-po-	.	0r	.
1C	.	.	1c	-si-	.	.	.	1cc	-ri-	.	.	.
0G	.	.	0d	-a	.	0g	post	0b	-bus	.	0r	.
=110	=110	=110	=110	=110	=110	=110	=110	=110	=110	=110	=110	=110
0r	.	.	2e\	con-	.	1g	ma-	2cc\	cum	.	0r	.
.	.	.	2e\	-gau-	.	.	.	2cc\	an-	.	.	.
.	.	.	2d\	-de-	.	1.a	.	2dd\	-ge-	.	.	.
.	.	.	2c\	-at	.	.	.	2ee\	-lis	.	.	.
0r	.	.	1d	bis	.	.	.	1ff	sic	.	0r	.
.	.	.	.	.	.	2f/	.	.	.	.	.	.
.	.	.	1e	tem-	.	1g	.	1cc	ca-	.	.	.
0r	.	.	1d	-po-	.	2a/	.	1ff	-nen-	.	0r	.
.	.	.	.	.	.	2b\	.	.	.	.	.	.
.	.	.	1c	-ri-	.	2cc\	.	2ee\	.	.	.	.
.	.	.	.	.	.	2a/	.	2cc\	.	.	.	.
=111	=111	=111	=111	=111	=111	=111	=111	=111	=111	=111	=111	=111
!!linebreak:original
0G	im-	.	0B	-bus	.	1g	.	1dd	.	.	0r	.
.	.	.	.	.	.	1g	.	2b\	.	.	.	.
.	.	.	.	.	.	.	.	2.dd\	.	.	.	.
1r	.	.	0r	.	.	2f/	.	.	.	.	0r	.
.	.	.	.	.	.	.	.	4cc\	.	.	.	.
.	.	.	.	.	.	2e/	.	1cc	.	.	.	.
1G	-pe-	.	.	.	.	1d	.	.	.	.	.	.
.	.	.	.	.	.	.	.	2b\	-ti-	.	.	.
1A	.	.	2c\	cum	.	1c	-la	[0cc	-bus.	.	0r	.
.	.	.	2c\	an-	.	.	.	.	.	.	.	.
1G	.	.	2d\	-ge-	.	2r	.	.	.	.	.	.
.	.	.	2e\	-lis	.	2g/	cel	.	.	.	.	.
=112	=112	=112	=112	=112	=112	=112	=112	=112	=112	=112	=112	=112
1.F	.	.	1f	sic	.	1.a	no-	0cc]	.	.	0.cc	Su-
.	.	.	1c	ca-	.	.	.	.	.	.	.	.
2E\	.	.	.	.	.	2g/	.	.	.	.	.	.
2F\	.	.	2f\	-nen-	.	2a/	.	0r	.	.	.	.
2C/	.	.	2e\	.	.	1cc	.	.	.	.	.	.
1G	-ri-	.	1d	-ti-	.	.	.	.	.	.	1dd	.
.	.	.	.	.	.	2b\	.	.	.	.	.	.
0C	-um	.	0c	-bus:	.	0cc	-lis,	0g	e-	.	1.ee	.
.	.	.	.	.	.	.	.	.	.	.	4dd\	.
.	.	.	.	.	.	.	.	.	.	.	4cc\	.
=113	=113	=113	=113	=113	=113	=113	=113	=113	=113	=113	=113	=113
0.G	.	.	1r	.	.	0r	.	1g	-ya	.	1b	.
.	.	.	1.d	e-	.	.	.	2r	.	.	1.dd	.
.	.	.	.	.	.	.	.	2g/	e-	.	.	.
.	.	.	.	.	.	0r	.	2b\	.	.	.	.
.	.	.	2e\	.	.	.	.	2b\	-ya	.	4cc\	.
.	.	.	.	.	.	.	.	.	.	.	4b\	.
1F	su-	.	1f	-ya	.	.	.	2cc\	.	.	1a	.
.	.	.	.	.	.	.	.	2cc\	e-	.	.	.
1G	.	.	1d	e-	.	0r	.	1g	-ya	.	1b	.
1C	.	.	[1e	.	.	.	.	2r	.	.	1cc	-sci-
.	.	.	.	.	.	.	.	2g/	e-	al-	.	.
=114	=114	=114	=114	=114	=114	=114	=114	=114	=114	=114	=114	=114
0G	.	.	2e\]	.	.	1.g	su-	2.b\	.	-le-	0dd	-pe
.	.	.	2d\	.	.	.	.	.	.	.	.	.
.	.	.	.	.	.	.	.	4a/	.	-lu-	.	.
.	.	.	1d	-ya	.	.	.	2b\	.	-ia	.	.
.	.	.	.	.	.	4f/	.	2cc\	.	De-	.	.
.	.	.	.	.	.	4e/	.	.	.	.	.	.
0.D	.	.	0d	e-	.	0f	.	0a	-ya	-o	1r	.
.	.	.	.	.	.	.	.	.	.	.	1dd	de-
.	.	.	1d	-ya	.	1f	-sci-	1r	.	.	1dd	-pre-
1G	-per	.	2r	.	.	1g	-pe	1r	.	.	1dd	-ca-
.	.	.	2d\	e-	.	.	.	.	.	.	.	.
=115	=115	=115	=115	=115	=115	=115	=115	=115	=115	=115	=115	=115
!!linebreak:original
1A	hu-	.	2f\	.	.	2c/	de-	2a/	al-	in	1cc	-ti-
.	.	.	2f\	-ya	.	2f/	-pre-	2a/	-le-	ex-	.	.
1G	-me-	.	2g\	e-	.	2d/	-ca-	2b\	-lu-	-cel-	0dd	-o-
.	.	.	2g\	-ya	.	2e/	-ti-	2b\	-ia	-sis	.	.
1F	-rum	.	1.d	al-	.	1f	-o-	1a	De-	glo-	.	.
1G	.	.	.	.	.	1d	.	1g	.	.	1b	.
.	.	.	2e\	-le-	.	.	.	.	.	.	.	.
0D	.	.	2f\	-lu-	.	0d	-nem	1a	.	.	1.dd	.
.	.	.	2e\	.	.	.	.	.	.	.	.	.
.	.	.	2f\	-ia	.	.	.	1a	.	-ri-	.	.
.	.	.	2g\	De-	.	.	.	.	.	.	4cc\	.
.	.	.	.	.	.	.	.	.	.	.	4b\	.
=116	=116	=116	=116	=116	=116	=116	=116	=116	=116	=116	=116	=116
0A	.	.	0e	-o	.	1r	.	[0a	-o	-a	0cc	-nem
.	.	.	.	.	.	1e	no-	.	.	.	.	.
0D	.	.	2d\	in	.	2.f/	.	0a]	.	.	1r	.
.	.	.	2d\	ex-	.	.	.	.	.	.	.	.
.	.	.	.	.	.	4g/	.	.	.	.	.	.
.	.	.	2f\	-cel-	.	2a/	.	.	.	.	1dd	no-
.	.	.	2g\	-sis-	.	2b\	.	.	.	.	.	.
0r	.	.	1a	-glo-	.	2cc\	.	0r	.	.	2cc\	.
.	.	.	.	.	.	2.a/	.	.	.	.	2.ee\	.
.	.	.	2f\	.	.	.	.	.	.	.	.	.
.	.	.	.	.	.	4g/	.	.	.	.	4dd\	.
.	.	.	2a\	.	.	2a/	.	.	.	.	2cc\	.
=117	=117	=117	=117	=117	=117	=117	=117	=117	=117	=117	=117	=117
0r	.	.	2g\	.	.	2b\	.	0r	.	.	2b\	.
.	.	.	2f\	.	.	1a	.	.	.	.	1dd	.
.	.	.	1e	.	.	.	.	.	.	.	.	.
.	.	.	.	.	.	2g/	.	.	.	.	2cc#i\	.
0r	.	.	0d	-ri-	.	1a	.	0r	.	.	0dd	.
.	.	.	.	.	.	1f	.	.	.	.	.	.
0r	.	.	[0G	-a,	.	1.d	.	2g/	et	.	0dd	-stram,
.	.	.	.	.	.	.	.	2g/	in	.	.	.
.	.	.	.	.	.	.	.	2g/	ter-	.	.	.
.	.	.	.	.	.	[2g/	.	2g/	-ra	.	.	.
=118	=118	=118	=118	=118	=118	=118	=118	=118	=118	=118	=118	=118
0r	.	.	1G]	.	.	1g]	.	1b	pax	.	1r	.
.	.	.	2.d\	glo-	.	2f/	.	1dd	ho-	.	1r	.
.	.	.	.	.	.	2b-i\	.	.	.	.	.	.
.	.	.	4e\	.	.	.	.	.	.	.	.	.
0r	.	.	2f\	.	.	2a/	.	2cc\	.	.	1r	.
.	.	.	2g\	.	.	1g	.	2b\	-mi-	.	.	.
.	.	.	1d	-ri-	.	.	.	1a	-ni-	.	1dd	no-
.	.	.	.	.	.	2f#i/	.	.	.	.	.	.
0G	e-	.	1G	-a,	.	0g	.	0g	-bus.	.	1b	.
.	.	.	1r	.	.	.	.	.	.	.	1dd	.
=119	=119	=119	=119	=119	=119	=119	=119	=119	=119	=119	=119	=119
!!pagebreak:original
[0C	-ius,	.	2c\	et	.	0e	.	0r	.	.	2.ee\	.
.	.	.	2c\	in	.	.	.	.	.	.	.	.
.	.	.	.	.	.	.	.	.	.	.	4ff\	.
.	.	.	2c\	ter-	.	.	.	.	.	.	1gg	.
.	.	.	2c\	-ra	.	.	.	.	.	.	.	.
0C]	.	.	1e	pax	.	0c	-stram,	0r	.	.	2.gg\	.
.	.	.	.	.	.	.	.	.	.	.	4ff\	.
.	.	.	1.g	ho-	.	.	.	.	.	.	2ee\	.
.	.	.	.	.	.	.	.	.	.	.	4dd\	.
.	.	.	.	.	.	.	.	.	.	.	4cc\	.
1r	.	.	.	.	.	1r	.	0r	.	.	2b\	.
.	.	.	2f\	.	.	.	.	.	.	.	2dd\	.
[1C	e-	.	2e\	.	.	1g	no-	.	.	.	2cc\	.
.	.	.	2c\	.	.	.	.	.	.	.	[2ee\	.
=120	=120	=120	=120	=120	=120	=120	=120	=120	=120	=120	=120	=120
1C]	.	.	1e	-mi-	.	1.g	.	0r	.	.	4ee\]	.
.	.	.	.	.	.	.	.	.	.	.	4dd\	.
.	.	.	.	.	.	.	.	.	.	.	1cc	.
1G	.	.	1d	-ni-	.	.	.	.	.	.	.	.
.	.	.	.	.	.	2f/	.	.	.	.	2b\	.
1C	-ius,	.	1c	-bus	.	1e	-stram,	0r	.	.	1cc	-stram,
1r	.	.	1r	.	.	1r	.	.	.	.	1r	.
0C;	sus	.	0c;	sus	.	0g;	sus	0cc;	sus	.	0ee;	sus
=121	=121	=121	=121	=121	=121	=121	=121	=121	=121	=121	=121	=121
1E	val-	.	1G	val-	.	1g	val-	1cc	val-	.	1gg	val-
1D	-la-	.	1B	-la	.	1d	-la-	1dd	-la-	.	1ff	-la-
[0C;l	-sus	.	[0c;l	sus	.	[0e;l	-sus	[0g;l	-sus	.	[0ee;l	-sus
0C]	.	.	0c]	.	.	0e]	.	0g]	.	.	0ee]	.
=122	=122	=122	=122	=122	=122	=122	=122	=122	=122	=122	=122	=122
1c	val-	.	1e	val-	.	1g	val-	1g	val-	.	1cc	val-
1c	-la-	.	1e	-la-	.	1g	-la-	1cc	-la-	.	1cc	-la
[0G;l	-sus	.	[0d;l	-sus	.	[0b;l	-sus	[0b;l	-sus	.	[0dd;l	sus
0G]	.	.	0d]	.	.	0b]	.	0b]	.	.	0dd]	.
=123	=123	=123	=123	=123	=123	=123	=123	=123	=123	=123	=123	=123
!!linebreak:original
1G	val-	.	0r	.	.	1g	val-	1g	val-	.	1dd	val-
1G	-la-	.	.	.	.	1g	-la-	1b	-la-	.	1dd	-la-
1A	-sus	.	0r	.	.	1e	-sus	1cc	-sus	.	1cc	-sus
1D	in	.	.	.	.	1f	in	1dd	in	.	1a	in
1A	o-	.	0r	.	.	1e	o-	1ee	o-	.	1cc	o-
1A	-ri-	.	.	.	.	1f	-ri-	1cc	-ri-	.	1cc	-ri-
=124	=124	=124	=124	=124	=124	=124	=124	=124	=124	=124	=124	=124
0G	-sus,	.	1G	val-	.	0g	-sus,	0dd	-sus	.	1b	-sus,
.	.	.	1B	-la-	.	.	.	.	.	.	1g	val-
1r	.	.	1c	-sus	.	1e	val-	0r	.	.	2g/	-la-
.	.	.	.	.	.	.	.	.	.	.	2a/	.
1G	in	.	1d	in	.	0g	-la	.	.	.	1b	-sus
1C	o-	.	1e	o-	.	.	.	0r	.	.	1cc	in
1C	-ri-	.	1c	-ri-	.	1cc	sus	.	.	.	[1ee	.
=125	=125	=125	=125	=125	=125	=125	=125	=125	=125	=125	=125	=125
0G	-sus,	.	0d	-sus	.	1b	in-	1g	re-	.	2ee\]	.
.	.	.	.	.	.	.	.	.	.	.	2dd\	.
.	.	.	.	.	.	1g	-o-	1b	-qui-	.	1dd	o-
0r	.	.	0r	.	.	2a/	.	2cc\	-es-	.	2cc\	.
.	.	.	.	.	.	2f/	.	2dd\	-cat	.	2a/	.
.	.	.	.	.	.	2a/	.	2cc\	il-	.	2cc\	.
.	.	.	.	.	.	4g/	.	2b\	-le	.	2dd\	.
.	.	.	.	.	.	4f/	.	.	.	.	.	.
0r	.	.	0r	.	.	1e	.	1cc	par-	.	1ee	.
.	.	.	.	.	.	2f/	.	1dd	.	.	[1dd	.
.	.	.	.	.	.	[2d/	.	.	.	.	.	.
=126	=126	=126	=126	=126	=126	=126	=126	=126	=126	=126	=126	=126
0r	.	.	0r	.	.	2d/]	.	2ff\	.	.	2dd\]	.
.	.	.	.	.	.	1g	.	2ee\	.	.	1b	.
.	.	.	.	.	.	.	.	2dd\	.	.	.	.
.	.	.	.	.	.	2a/	-ri-	2cc\	-vu-	.	2a/	-ri-
1.G	re-	val-	1G	re-	val-	1b	-sus,	0dd	-lus	.	0g	-sus
.	.	.	1B	-qui-	-la-	2g/	val-	.	.	.	.	.
2F\	-qui-	-la-	.	.	.	2.b\	-la-	.	.	.	.	.
2G\	-es-	-sus	2c\	-es-	-sus	.	.	0r	.	.	1r	.
.	.	.	.	.	.	4a/	.	.	.	.	.	.
2D\	-cat	in	2d\	-cat	in	2.a/	-sus	.	.	.	.	.
2F\	il-	o-	2c\	il-	o-	.	.	.	.	.	1r	.
.	.	.	.	.	.	4g/	.	.	.	.	.	.
2G\	-le	.	2B\	-le	.	[2g/	in	.	.	.	.	.
=127	=127	=127	=127	=127	=127	=127	=127	=127	=127	=127	=127	=127
!!linebreak:original
1A	par-	.	1c	par-	.	2g/]	.	0r	.	.	1a	val-
.	.	.	.	.	.	2f/	o-	.	.	.	.	.
1G	.	.	1d	.	.	2g/	.	.	.	.	2b\	-la-
.	.	.	.	.	.	2b-i\	.	.	.	.	2.dd\	-sus
2D\	.	.	2f\	.	.	2a/	.	0r	.	.	.	.
.	.	.	.	.	.	.	.	.	.	.	4cc\	.
1G	.	.	2e\	.	.	2.g/	-ri-	.	.	.	1b	in
.	.	.	2d\	.	.	.	.	.	.	.	.	.
.	.	.	.	.	.	4f/	.	.	.	.	.	.
2A\	-vu-	-ri-	2c\	-vu-	-ri-	2e/	-sus.	.	.	.	2a/	.
0D	-lus,	-sus	0d	-lus,	-sus	1f	Re-	0dd	re-	.	1.a	o-
.	.	.	.	.	.	[1a	.	.	.	.	.	.
.	.	.	.	.	.	.	.	.	.	.	2b\	-ri-
=128	=128	=128	=128	=128	=128	=128	=128	=128	=128	=128	=128	=128
0r	.	.	2c\	re-	.	2a/]	.	1ee	-qui-	.	1cc	-sus.
.	.	.	2c\	-qui-	.	2g/	-qui-	.	.	.	.	.
.	.	.	2d\	-es-	.	2f/	-es-	2dd\	-es-	.	2b\	Re-
.	.	.	2e\	-cat	.	2g/	-cat	2cc\	-cat	.	2g/	-qui-
0r	.	.	1f	il-	.	1d	il-	2dd\	il-	.	2.a/	-es-
.	.	.	.	.	.	.	.	2dd\	-le	.	.	.
.	.	.	.	.	.	.	.	.	.	.	4b\	.
.	.	.	2c\	-le	.	1g	.	2ee\	par-	.	2cc\	.
.	.	.	2B\	par-	.	.	.	2.dd\	.	.	2dd\	-cat
0r	.	.	1e	.	.	2c/	-le	.	.	.	2a/	il-
.	.	.	.	.	.	.	.	4cc\	.	.	.	.
.	.	.	.	.	.	1g	par-	1cc	.	.	2cc\	.
.	.	.	1d	-vu-	.	.	.	.	.	.	1dd	-le
.	.	.	.	.	.	2f/	.	2b\	-vu-	.	.	.
=129	=129	=129	=129	=129	=129	=129	=129	=129	=129	=129	=129	=129
0C	re-	.	0c	-lus,	.	1g	-vu-	0cc	-lus	.	2.ee\	par-
.	.	.	.	.	.	.	.	.	.	.	4ff\	.
.	.	.	.	.	.	1e	-lus,	.	.	.	1.gg	.
1E	-qui-	.	0r	.	.	2c/	re-	0r	.	.	.	.
.	.	.	.	.	.	2c/	-qui-	.	.	.	4ff\	.
.	.	.	.	.	.	.	.	.	.	.	4ee\	.
2D\	-es-	.	.	.	.	2d/	-es-	.	.	.	2ff\	.
2C/	.	.	.	.	.	2e/	-cat	.	.	.	2gg\	.
1D	-cat	.	1d	no-	.	1f	il-	0r	.	.	2dd\	.
.	.	.	.	.	.	.	.	.	.	.	2ff\	.
2C/	il-	.	2e\	-e,	.	2c/	-le	.	.	.	2ee\	.
2G\	-le	.	[2g\	no-	.	2B/	.	.	.	.	[2dd\	.
=130	=130	=130	=130	=130	=130	=130	=130	=130	=130	=130	=130	=130
1C	par-	.	2g\]	.	.	1e	par-	0r	.	.	4dd\]	.
.	.	.	.	.	.	.	.	.	.	.	4cc\	.
.	.	.	1g	-e,	.	.	.	.	.	.	1cc	.
1G	.	.	.	.	.	1d	.	.	.	.	.	.
.	.	.	2f\	no-	.	.	.	.	.	.	2b\	-vu-
1r	.	.	1e	.	.	1c	.	0r	.	.	1cc	-lus,
1C	-vu-	.	1c	.	.	1e	.	.	.	.	1cc	no-
1.G	-lus.	.	1d	-e,	.	1d	-vu-	0r	.	.	1b	.
.	.	.	[1d	par-	.	[1g	-lus,	.	.	.	1dd	-e
2A\	.	.	.	.	.	.	.	.	.	.	.	.
=131	=131	=131	=131	=131	=131	=131	=131	=131	=131	=131	=131	=131
!!pagebreak:original
1B	no-	.	2d\]	.	.	1g]	.	0r	.	.	1dd	no-
.	.	.	4c\	-vu-	.	.	.	.	.	.	.	.
.	.	.	4B\	.	.	.	.	.	.	.	.	.
1c	.	.	1A	-lus	.	0a	.	.	.	.	1.ee	.
1A	-e	.	1c	A-	.	.	.	0cc	A-	.	.	.
.	.	.	.	.	.	.	.	.	.	.	2dd\	-e,
1c	.	.	1e	.	.	0.g	.	.	.	.	0cc	no-
0G	.	.	0d	.	.	.	.	0dd	.	.	.	.
.	.	.	.	.	.	.	.	.	.	.	1b	-e.
=132	=132	=132	=132	=132	=132	=132	=132	=132	=132	=132	=132	=132
0C	A-	.	0c	.	.	0e	A-	0ee	.	.	0cc	A-
[0G;l	.	.	[0d;l	.	.	[0g;l	.	[0dd;l	.	.	[0b;l	.
0G]	.	.	0d]	.	.	0g]	.	0dd]	.	.	0b]	.
=133	=133	=133	=133	=133	=133	=133	=133	=133	=133	=133	=133	=133
*	*	*	*	*	*	*	*	*^	*	*	*	*
[0Cl	-men.	.	[0cl	-men.	.	[0gl	-men.	[0ee\l	[0gg/l	-men.	.	[0ccl	-men.
0C_	.	.	0c_	.	.	0g_	.	0ee_\	0gg_/yy	.	.	0cc_	.
0C]	.	.	0c]	.	.	0g]	.	0ee\]	0gg]/yy	.	.	0cc]	.
*	*	*	*	*	*	*	*	*v	*v	*	*	*	*
==	==	==	==	==	==	==	==	==	==	==	==	==
*-	*-	*-	*-	*-	*-	*-	*-	*-	*-	*-	*-	*-
!!!RDF**kern: l=long note in original notation
!!!RDF**kern: i=musica ficta
!!!ENC: Jesse Rodin; Victoria Chang 2011/11/20
!!!END: 2011/11/20/
!!!SMS: Chigi Codex; Lindenburg, CMM 9-2
!!!EED:	Victoria Chang
!!!EEV:	2011/11/23/
!!!ONB:	Translated from MusicXML and edited on 2011/11/23/ by Craig Sapp
!!muse2ps: T^@{OTL}^C^@{COM}^i2I200v130,130,130,130,180
